; G-Code generated by Simplify3D(R) Version 3.0.2
; Jul 9, 2016 at 12:29:09 PM
; Settings Summary
;   processName,Process1
;   applyToModels,fish_fossilz_fob
;   profileName,JB Lite6 10mm meltzone 0.3 (modified)
;   profileVersion,2016-06-12 18:59:48
;   baseProfile,Plywood
;   printMaterial,PLA
;   printQuality,0.3 base
;   printExtruders,
;   extruderName,Primary Extruder
;   extruderToolheadNumber,0
;   extruderDiameter,0.4
;   extruderAutoWidth,0
;   extruderWidth,0.6
;   extrusionMultiplier,1
;   extruderUseRetract,1
;   extruderRetractionDistance,1.3
;   extruderExtraRestartDistance,0
;   extruderRetractionZLift,0
;   extruderRetractionSpeed,4200
;   extruderUseCoasting,1
;   extruderCoastingDistance,0.15
;   extruderUseWipe,0
;   extruderWipeDistance,5
;   primaryExtruder,0
;   layerHeight,0.3
;   topSolidLayers,3
;   bottomSolidLayers,2
;   perimeterOutlines,1
;   printPerimetersInsideOut,1
;   startPointOption,2
;   startPointOriginX,100
;   startPointOriginY,0
;   startPointOriginZ,150
;   sequentialIslands,0
;   spiralVaseMode,0
;   firstLayerHeightPercentage,100
;   firstLayerWidthPercentage,100
;   firstLayerUnderspeed,0.5
;   useRaft,0
;   raftExtruder,0
;   raftLayers,3
;   raftOffset,5
;   raftSeparationDistance,0.1
;   raftInfill,85
;   disableRaftBaseLayers,0
;   useSkirt,1
;   skirtExtruder,0
;   skirtLayers,1
;   skirtOutlines,3
;   skirtOffset,4
;   usePrimePillar,0
;   primePillarExtruder,999
;   primePillarWidth,12
;   primePillarLocation,7
;   primePillarSpeedMultiplier,1
;   useOozeShield,0
;   oozeShieldExtruder,999
;   oozeShieldOffset,10
;   oozeShieldOutlines,1
;   oozeShieldSidewallShape,0
;   oozeShieldSidewallAngle,30
;   oozeShieldSpeedMultiplier,1
;   infillExtruder,0
;   internalInfillPattern,Grid
;   externalInfillPattern,Rectilinear
;   infillPercentage,0
;   outlineOverlapPercentage,22
;   infillExtrusionWidthPercentage,125
;   minInfillLength,1
;   infillLayerInterval,1
;   infillAngles,45,-45
;   overlapInfillAngles,1
;   generateSupport,0
;   supportExtruder,0
;   supportInfillPercentage,20
;   supportExtraInflation,0
;   denseSupportLayers,0
;   denseSupportInfillPercentage,70
;   supportLayerInterval,1
;   supportHorizontalPartOffset,0.3
;   supportUpperSeparationLayers,1
;   supportLowerSeparationLayers,1
;   supportType,0
;   supportGridSpacing,5
;   maxOverhangAngle,35
;   supportAngles,0
;   temperatureName,Extruder 0,Heated Bed
;   temperatureNumber,0,0
;   temperatureSetpointCount,1,1
;   temperatureSetpointLayers,1,1
;   temperatureSetpointTemperatures,210,80
;   temperatureStabilizeAtStartup,1,1
;   temperatureHeatedBed,0,1
;   temperatureRelayBetweenLayers,0,0
;   temperatureRelayBetweenLoops,0,0
;   fanLayers,1
;   fanSpeeds,0
;   blipFanToFullPower,1
;   adjustSpeedForCooling,1
;   minSpeedLayerTime,15
;   minCoolingSpeedSlowdown,20
;   increaseFanForCooling,1
;   minFanLayerTime,15
;   maxCoolingFanSpeed,100
;   increaseFanForBridging,1
;   bridgingFanSpeed,100
;   use5D,1
;   relativeEdistances,1
;   allowEaxisZeroing,1
;   independentExtruderAxes,0
;   includeM10123,0
;   stickySupport,1
;   applyToolheadOffsets,0
;   gcodeXoffset,0
;   gcodeYoffset,0
;   gcodeZoffset,0
;   overrideMachineDefinition,1
;   machineTypeOverride,0
;   strokeXoverride,170
;   strokeYoverride,160
;   strokeZoverride,145
;   originOffsetXoverride,0
;   originOffsetYoverride,0
;   originOffsetZoverride,0
;   homeXdirOverride,-1
;   homeYdirOverride,-1
;   homeZdirOverride,-1
;   flipXoverride,1
;   flipYoverride,-1
;   flipZoverride,1
;   toolheadOffsets,0,0|0,0|0,0|0,0|0,0|0,0
;   overrideFirmwareConfiguration,0
;   firmwareTypeOverride,RepRap (Marlin/Repetier/Sprinter)
;   GPXconfigOverride,r2
;   baudRateOverride,250000
;   overridePrinterModels,0
;   printerModelsOverride
;   startingGcode,; Jellybox Start Script Begin,M117 Preparing ,,; set x homing offset for default bed leveling,M206 X10.0 Y0.0  ,; optionally adjust Extruder steps per mm for your filament,; M92 E140 ,,; home all axes,G28,; slow Z speed down for greater accuracy,M203 Z5,; auto bed leveling procedure,G29,; pick up z speed again for print,M203 Z7,; reset extruder position,G92 E0,,M117 Print starting,;Jellybox Printer Start Script End
;   layerChangeGcode,
;   retractionGcode,
;   toolChangeGcode,
;   endingGcode,;Jellybox Printer End Script Start,,; extruder heater off,M104 S0,; bed heater off (if you have it),M140 S0,; turn fan off,M107,,; relative positioning,G91,; retract the filament a bit before lifting the nozzle to release some of the pressure,G1 E-1.5 F1200,; move Z up a bit and retract filament even more,G1 Z+1 E-1 X-20 Y-20,;move X/Y to so the head is out of the way,G28 X0,G1 Y100,; steppers off,M84,; absolute positioning,G90,,; Jellybox Printer End Script End
;   createX3G,0
;   celebration,0
;   celebrationSong,Random Song
;   createMB5G,0
;   postProcessing,{REPLACE "M117 Layer" "M117 Layer"} ,{REPLACE ", Z = " " | Z="}
;   defaultSpeed,3000
;   outlineUnderspeed,0.4
;   solidInfillUnderspeed,0.75
;   supportUnderspeed,0.75
;   rapidXYspeed,9000
;   rapidZspeed,300
;   minBridgingArea,50
;   bridgingExtraInflation,0.4
;   bridgingExtrusionMultiplier,1
;   bridgingSpeedMultiplier,1
;   filamentDiameter,1.75
;   filamentPricePerKg,15
;   filamentDensity,1.25
;   useMinPrintHeight,0
;   minPrintHeight,0
;   useMaxPrintHeight,0
;   maxPrintHeight,0
;   useDiaphragm,0
;   diaphragmLayerInterval,20
;   robustSlicing,1
;   mergeAllIntoSolid,0
;   onlyRetractWhenCrossingOutline,1
;   retractBetweenLayers,1
;   useRetractionMinTravel,1
;   retractionMinTravel,1.5
;   retractWhileWiping,0
;   onlyWipeOutlines,1
;   avoidCrossingOutline,1
;   maxMovementDetourFactor,3
;   toolChangeRetractionDistance,12
;   toolChangeExtraRestartDistance,-0.5
;   toolChangeRetractionSpeed,600
;   allowThinWallGapFill,1
;   thinWallAllowedOverlapPercentage,15
;   horizontalSizeCompensation,0
;---------------------------------------
; ; ; Jellybox Start Script Begin ; ; ;
;_______________________________________
G21               ;metric values
G90               ;absolute positioning
M82               ;set extruder to absolute mode
M107              ;start with the fan off
M117 Preparing    ;write Preparing
M190 S45          ;wait for the bed to reach 45C
M109 S180         ;wait for the extruder to reach 180C
G28               ;home all axes
M203 Z4           ;slow Z speed down for greater accuracy when probing
G29               ;auto bed leveling procedure
;M500              ;optionally save the mesh
M203 Z7           ;pick up z speed again for printing
G28 X             ;home x to get as far from the plate as possible
M420 S1           ;(re) enable bed leveling turned off by the G28
G0 Y0 F5000       ;position Y in front
G0 Z15 F3000      ;position Z
M190 S60          ;wait for the bed to reach desired temperature
M109 S210         ;wait for the extruder to reach desired temperature
M300 S440 P300    ;play a tone
G4 P200           ;pause
M0 Click to start print
M420 S1           ;(re) enable bed leveling to make iron-sure
M117 Print starting   ;write Print starting
;================ ;PRINT:LINE start
G90               ;absolute positioning
G92 E0            ;reset the extruder position
M420 S1           ;(re) enable bed leveling to make iron-sure
G0 Z0             ;get Z down
M83               ;relative extrusion mode
G1 E22 F500       ;extrude __mm of feed stock
G1 E18 F400       ;extrude __mm of feed stock
G1 E10 F400       ;extrude __mm of feed stock
G4 S2             ;pause for ooze
M400              ;make sure all is finished
M420 S1           ;(re) enable bed leveling to make iron-sure
G0 F500 X3 Y0 Z0.6;get to the start of the LINE
G1 E2 F300        ;extrude __mm of feed stock
G1 F1000 X104 E10  ;print a thick LINE extruding __mm along the way
M83               ;relative extrusion mode
G92 E0            ;reset the extruder position
;---------------------------------------------
; ; ; Jellybox Printer Start Script End ; ; ;
;_____________________________________________
G1 E-1.3000 F4200
G1 Z0.300 F300
M117 Layer 1, Z = 0.3
T0
; tool H0.300 W0.600
; skirt
G1 X49.610 Y65.931 F9000
G1 E1.3000 F1260
G1 X51.473 Y64.798 E0.1632 F1500
G1 X51.775 Y64.694 E0.0239
G1 X53.803 Y64.446 E0.1529
G1 X54.121 Y64.475 E0.0239
G1 X55.759 Y64.987 E0.1284
G1 X55.783 Y64.995 E0.0019
G1 X55.935 Y65.048 E0.0120
G1 X55.959 Y65.057 E0.0019
G1 X56.875 Y65.413 E0.0735
G1 X56.896 Y65.421 E0.0017
G1 X57.029 Y65.478 E0.0108
G1 X57.050 Y65.487 E0.0017
G1 X57.935 Y65.894 E0.0729
G1 X57.956 Y65.904 E0.0018
G1 X58.089 Y65.971 E0.0111
G1 X58.110 Y65.981 E0.0018
G1 X59.899 Y66.945 E0.1521
G1 X59.917 Y66.955 E0.0016
G1 X60.031 Y67.020 E0.0098
G1 X60.049 Y67.031 E0.0016
G1 X61.349 Y67.826 E0.1140
G1 X61.369 Y67.839 E0.0019
G1 X61.500 Y67.925 E0.0117
G1 X61.521 Y67.939 E0.0018
G1 X62.740 Y68.801 E0.1117
G1 X62.765 Y68.819 E0.0023
G1 X62.923 Y68.941 E0.0149
G1 X62.947 Y68.960 E0.0023
G1 X63.244 Y69.209 E0.0290
G1 X63.277 Y69.189 E0.0029
G1 X64.308 Y68.661 E0.0867
G1 X64.403 Y68.620 E0.0077
G1 X65.023 Y68.404 E0.0491
G1 X65.123 Y68.376 E0.0078
G1 X65.900 Y68.221 E0.0593
G1 X65.973 Y68.210 E0.0055
G1 X66.438 Y68.164 E0.0349
G1 X66.511 Y68.160 E0.0055
G1 X67.221 Y68.160 E0.0531
G1 X67.297 Y68.163 E0.0057
G1 X67.435 Y68.177 E0.0104
G1 X67.560 Y67.991 E0.0168
G1 X67.631 Y67.903 E0.0085
G1 X68.117 Y67.376 E0.0536
G1 X68.200 Y67.299 E0.0085
G1 X68.876 Y66.758 E0.0648
G1 X68.947 Y66.708 E0.0065
G1 X69.414 Y66.416 E0.0412
G1 X69.490 Y66.375 E0.0065
G1 X70.272 Y66.004 E0.0648
G1 X70.351 Y65.971 E0.0064
G1 X70.865 Y65.796 E0.0406
G1 X70.947 Y65.773 E0.0064
G1 X71.671 Y65.615 E0.0554
G1 X71.744 Y65.603 E0.0056
G1 X72.212 Y65.549 E0.0353
G1 X72.286 Y65.544 E0.0056
G1 X72.999 Y65.532 E0.0533
G1 X73.074 Y65.535 E0.0057
G1 X73.551 Y65.575 E0.0358
G1 X73.626 Y65.585 E0.0057
G1 X74.343 Y65.719 E0.0546
G1 X74.373 Y65.727 E0.0023
G1 X74.807 Y65.346 E0.0432
G1 X74.881 Y65.288 E0.0070
G1 X75.691 Y64.740 E0.0732
G1 X75.781 Y64.688 E0.0078
G1 X76.371 Y64.398 E0.0492
G1 X76.467 Y64.359 E0.0078
G1 X77.340 Y64.072 E0.0688
G1 X77.423 Y64.049 E0.0065
G1 X77.960 Y63.939 E0.0410
G1 X78.046 Y63.926 E0.0065
G1 X78.724 Y63.866 E0.0510
G1 X78.779 Y63.864 E0.0041
G1 X79.129 Y63.859 E0.0262
G1 X79.184 Y63.860 E0.0041
G1 X79.659 Y63.888 E0.0356
G1 X79.716 Y63.894 E0.0043
G1 X80.075 Y63.943 E0.0271
G1 X80.131 Y63.952 E0.0043
G1 X80.847 Y64.106 E0.0548
G1 X80.940 Y64.133 E0.0072
G1 X81.401 Y64.296 E0.0366
G1 X81.936 Y63.919 E0.0490
G1 X81.996 Y63.881 E0.0053
G1 X82.386 Y63.657 E0.0337
G1 X82.450 Y63.625 E0.0053
G1 X83.108 Y63.327 E0.0540
G1 X83.189 Y63.296 E0.0065
G1 X83.712 Y63.129 E0.0411
G1 X83.796 Y63.107 E0.0065
G1 X84.668 Y62.937 E0.0664
G1 X84.756 Y62.925 E0.0067
G1 X85.319 Y62.883 E0.0422
G1 X85.408 Y62.881 E0.0067
G1 X86.289 Y62.920 E0.0660
G1 X86.403 Y62.934 E0.0086
G1 X87.114 Y63.075 E0.0543
G1 X87.224 Y63.106 E0.0086
G1 X88.427 Y63.543 E0.0958
G1 X88.487 Y63.572 E0.0050
G1 X88.875 Y63.323 E0.0345
G1 X88.950 Y63.280 E0.0065
G1 X89.445 Y63.038 E0.0412
G1 X89.525 Y63.004 E0.0065
G1 X90.341 Y62.715 E0.0648
G1 X90.423 Y62.691 E0.0064
G1 X90.952 Y62.570 E0.0406
G1 X91.036 Y62.556 E0.0064
G1 X91.772 Y62.473 E0.0554
G1 X91.846 Y62.468 E0.0056
G1 X92.317 Y62.462 E0.0352
G1 X92.391 Y62.465 E0.0056
G1 X93.163 Y62.532 E0.0579
G1 X93.257 Y62.546 E0.0071
G1 X93.845 Y62.673 E0.0451
G1 X93.937 Y62.699 E0.0071
G1 X94.856 Y63.024 E0.0730
G1 X94.945 Y63.062 E0.0072
G1 X95.491 Y63.338 E0.0458
G1 X95.574 Y63.387 E0.0072
G1 X96.154 Y63.782 E0.0525
G1 X96.166 Y63.776 E0.0010
G1 X96.673 Y63.562 E0.0412
G1 X96.755 Y63.533 E0.0065
G1 X97.586 Y63.290 E0.0648
G1 X97.670 Y63.271 E0.0064
G1 X98.205 Y63.179 E0.0406
G1 X98.290 Y63.169 E0.0064
G1 X99.029 Y63.128 E0.0554
G1 X99.103 Y63.128 E0.0056
G1 X99.574 Y63.148 E0.0352
G1 X99.648 Y63.155 E0.0056
G1 X100.353 Y63.256 E0.0533
G1 X100.427 Y63.271 E0.0057
G1 X100.892 Y63.386 E0.0359
G1 X100.965 Y63.408 E0.0057
G1 X101.651 Y63.654 E0.0546
G1 X101.722 Y63.684 E0.0058
G1 X102.163 Y63.895 E0.0366
G1 X102.231 Y63.932 E0.0058
G1 X102.859 Y64.317 E0.0551
G1 X102.923 Y64.360 E0.0058
G1 X102.928 Y64.364 E0.0005
G1 X103.427 Y64.198 E0.0394
G1 X103.591 Y64.163 E0.0126
G1 X104.653 Y64.058 E0.0798
G1 X104.821 Y64.060 E0.0126
G1 X106.861 Y64.317 E0.1539
G1 X106.877 Y64.319 E0.0012
G1 X106.980 Y64.334 E0.0078
G1 X106.997 Y64.337 E0.0012
G1 X109.211 Y64.715 E0.1681
G1 X109.226 Y64.718 E0.0012
G1 X109.325 Y64.737 E0.0075
G1 X109.340 Y64.740 E0.0012
G1 X110.684 Y65.028 E0.1028
G1 X110.701 Y65.032 E0.0013
G1 X110.810 Y65.058 E0.0084
G1 X110.827 Y65.063 E0.0013
G1 X112.912 Y65.614 E0.1614
G1 X112.933 Y65.620 E0.0017
G1 X113.068 Y65.660 E0.0105
G1 X113.090 Y65.667 E0.0017
G1 X114.558 Y66.150 E0.1157
G1 X114.583 Y66.159 E0.0020
G1 X114.742 Y66.218 E0.0127
G1 X114.767 Y66.227 E0.0020
G1 X116.670 Y67.008 E0.1539
G1 X116.693 Y67.018 E0.0019
G1 X116.840 Y67.084 E0.0121
G1 X116.863 Y67.095 E0.0019
G1 X117.979 Y67.643 E0.0930
G1 X117.996 Y67.652 E0.0014
G1 X118.101 Y67.707 E0.0089
G1 X118.117 Y67.716 E0.0014
G1 X119.121 Y68.273 E0.0859
G1 X119.143 Y68.286 E0.0019
G1 X119.283 Y68.370 E0.0122
G1 X119.305 Y68.384 E0.0019
G1 X120.875 Y69.403 E0.1400
G1 X120.895 Y69.417 E0.0019
G1 X121.026 Y69.508 E0.0119
G1 X121.046 Y69.523 E0.0019
G1 X121.720 Y70.027 E0.0630
G1 X121.737 Y70.041 E0.0016
G1 X121.845 Y70.126 E0.0103
G1 X121.862 Y70.140 E0.0016
G1 X123.185 Y71.256 E0.1295
G1 X123.316 Y71.400 E0.0145
G1 X124.025 Y72.411 E0.0924
G1 X124.115 Y72.583 E0.0145
G1 X124.691 Y74.149 E0.1249
G1 X124.737 Y74.423 E0.0208
G1 X124.707 Y76.197 E0.1328
G1 X124.651 Y76.470 E0.0208
G1 X124.541 Y76.740 E0.0218
G1 X124.868 Y77.447 E0.0583
G1 X124.933 Y77.680 E0.0181
G1 X125.101 Y79.208 E0.1150
G1 X125.096 Y79.414 E0.0154
G1 X124.881 Y80.707 E0.0980
G1 X124.820 Y80.904 E0.0154
G1 X124.039 Y82.570 E0.1378
G1 X124.024 Y82.599 E0.0024
G1 X123.931 Y82.777 E0.0150
G1 X123.916 Y82.805 E0.0024
G1 X123.022 Y84.355 E0.1340
G1 X123.008 Y84.379 E0.0021
G1 X122.914 Y84.527 E0.0131
G1 X122.899 Y84.551 E0.0021
G1 X122.274 Y85.471 E0.0833
G1 X122.260 Y85.490 E0.0017
G1 X122.174 Y85.609 E0.0110
G1 X122.161 Y85.627 E0.0017
G1 X121.436 Y86.563 E0.0885
G1 X121.419 Y86.584 E0.0020
G1 X121.309 Y86.716 E0.0129
G1 X121.291 Y86.737 E0.0020
G1 X120.447 Y87.678 E0.0946
G1 X120.426 Y87.701 E0.0024
G1 X120.284 Y87.846 E0.0152
G1 X120.261 Y87.869 E0.0024
G1 X119.319 Y88.754 E0.0967
G1 X119.301 Y88.770 E0.0018
G1 X119.187 Y88.871 E0.0114
G1 X119.168 Y88.887 E0.0018
G1 X118.548 Y89.399 E0.0602
G1 X118.533 Y89.411 E0.0014
G1 X118.439 Y89.485 E0.0090
G1 X118.424 Y89.497 E0.0014
G1 X117.289 Y90.340 E0.1058
G1 X117.269 Y90.355 E0.0019
G1 X117.141 Y90.444 E0.0117
G1 X117.120 Y90.458 E0.0018
G1 X115.968 Y91.202 E0.1026
G1 X115.944 Y91.217 E0.0022
G1 X115.787 Y91.310 E0.0136
G1 X115.762 Y91.324 E0.0022
G1 X114.134 Y92.206 E0.1386
G1 X114.111 Y92.219 E0.0020
G1 X113.962 Y92.293 E0.0125
G1 X113.938 Y92.304 E0.0020
G1 X112.863 Y92.793 E0.0884
G1 X112.846 Y92.800 E0.0014
G1 X112.741 Y92.845 E0.0085
G1 X112.725 Y92.852 E0.0013
G1 X111.715 Y93.253 E0.0813
G1 X111.701 Y93.259 E0.0011
G1 X111.612 Y93.292 E0.0071
G1 X111.598 Y93.297 E0.0011
G1 X110.634 Y93.637 E0.0765
G1 X110.618 Y93.642 E0.0012
G1 X110.520 Y93.675 E0.0078
G1 X110.504 Y93.680 E0.0012
G1 X108.521 Y94.282 E0.1551
G1 X108.509 Y94.285 E0.0009
G1 X108.432 Y94.307 E0.0060
G1 X108.420 Y94.311 E0.0009
G1 X107.409 Y94.581 E0.0783
G1 X107.395 Y94.585 E0.0010
G1 X107.311 Y94.606 E0.0065
G1 X107.297 Y94.609 E0.0010
G1 X105.011 Y95.131 E0.1755
G1 X104.732 Y95.142 E0.0210
G1 X103.234 Y94.920 E0.1133
G1 X102.754 Y95.285 E0.0451
G1 X102.658 Y95.348 E0.0086
G1 X101.690 Y95.874 E0.0824
G1 X101.585 Y95.921 E0.0086
G1 X100.900 Y96.168 E0.0545
G1 X100.789 Y96.198 E0.0086
G1 X99.798 Y96.391 E0.0756
G1 X99.707 Y96.403 E0.0068
G1 X99.130 Y96.444 E0.0433
G1 X99.039 Y96.444 E0.0068
G1 X98.302 Y96.407 E0.0552
G1 X98.233 Y96.400 E0.0052
G1 X97.798 Y96.337 E0.0329
G1 X97.729 Y96.324 E0.0052
G1 X97.105 Y96.173 E0.0481
G1 X97.040 Y96.154 E0.0051
G1 X96.633 Y96.017 E0.0321
G1 X96.570 Y95.992 E0.0051
