; G-Code generated by Simplify3D(R) Version 4.0.0
; Jun 2, 2018 at 8:18:59 PM
;---------------------------------------
; ; ; Jellybox Start Script Begin ; ; ;
;_______________________________________
G21               ;metric values
G90               ;absolute positioning
M82               ;set extruder to absolute mode
M107              ;start with the fan off
M117 Preparing    ;write Preparing
M190 S45          ;wait for the bed to reach 45C
M109 S180         ;wait for the extruder to reach 180C
G28               ;home all axes
M203 Z4           ;slow Z speed down for greater accuracy when probing
G29               ;auto bed leveling procedure
;M500              ;optionally save the mesh
M203 Z7           ;pick up z speed again for printing
G28 X             ;home x to get as far from the plate as possible
M420 S1           ;(re) enable bed leveling turned off by the G28
G0 Y0 F5000       ;position Y in front
G0 Z15 F3000      ;position Z
M190 S45          ;wait for the bed to reach desired temperature
M109 S210         ;wait for the extruder to reach desired temperature
M300 S440 P100    ;play a tone
G4 P200           ;pause
M300 S440 P100    ;play a tone
G4 P200           ;pause
M300 S440 P800    ;play a tone
M0
M420 S1           ;(re) enable bed leveling to make iron-sure
M117 Print starting   ;write Print starting
;================ ;PRINT:LINE start
G90               ;absolute positioning
G92 E0            ;reset the extruder position
M420 S1           ;(re) enable bed leveling to make iron-sure
G0 Z0             ;get Z down
M83               ;relative extrusion mode
G1 E22 F500       ;extrude __mm of feed stock
G1 E18 F400       ;extrude __mm of feed stock
G1 E10 F400       ;extrude __mm of feed stock
G4 S2             ;pause for ooze
M400              ;make sure all is finished
M420 S1           ;(re) enable bed leveling to make iron-sure
G0 F500 X3 Y0 Z0.6;get to the start of the LINE
G1 E2 F300        ;extrude __mm of feed stock
G1 F1000 X104 E10  ;print a thick LINE extruding __mm along the way
M82               ;absolute extrusion mode
G92 E0            ;reset the extruder position
;---------------------------------------------
; ; ; Jellybox Printer Start Script End ; ; ;
;_____________________________________________

M83
G1 E-1.2000 F4200
; process spring2018
M117 Layer 1, Z = 0.300
T0
; tool H0.300 W0.483
; skirt
G1 Z0.330 F300 ;hand tweaked Jun 30, 2018
G1 X43.114 Y46.527 F7200
G1 E1.2000 F1260
G1 X43.624 Y46.120 E0.0393 F1500
G1 X43.638 Y46.111 E0.0010
G1 X51.235 Y41.820 E0.5256
G1 X51.247 Y41.815 E0.0008
G1 X51.722 Y41.620 E0.0310
G1 X51.735 Y41.616 E0.0008
G1 X52.638 Y41.371 E0.0563
G1 X52.665 Y41.368 E0.0017
G1 X53.741 Y41.364 E0.0648
G1 X53.768 Y41.368 E0.0017
G1 X54.674 Y41.606 E0.0564
G1 X54.686 Y41.610 E0.0008
G1 X55.171 Y41.806 E0.0315
G1 X55.183 Y41.812 E0.0008
G1 X61.579 Y45.405 E0.4419
G1 X117.494 Y45.424 E3.3685
G1 X117.506 Y45.424 E0.0007
G1 X117.974 Y45.478 E0.0284
G1 X117.986 Y45.481 E0.0007
G1 X118.593 Y45.623 E0.0375
G1 X118.603 Y45.625 E0.0006
G1 X118.999 Y45.762 E0.0252
G1 X119.009 Y45.766 E0.0006
G1 X119.795 Y46.130 E0.0522
G1 X119.809 Y46.138 E0.0010
G1 X120.337 Y46.489 E0.0382
G1 X120.350 Y46.499 E0.0010
G1 X121.116 Y47.201 E0.0626
G1 X121.127 Y47.213 E0.0010
G1 X121.517 Y47.697 E0.0374
G1 X121.526 Y47.710 E0.0010
G1 X121.989 Y48.506 E0.0555
G1 X121.995 Y48.518 E0.0008
G1 X122.200 Y49.005 E0.0318
G1 X122.205 Y49.018 E0.0008
G1 X122.436 Y49.856 E0.0523
G1 X122.439 Y49.867 E0.0007
G1 X122.511 Y50.329 E0.0282
G1 X122.512 Y50.341 E0.0007
G1 X122.546 Y51.122 E0.0471
G1 X122.545 Y51.133 E0.0007
G1 X122.517 Y51.571 E0.0264
G1 X122.516 Y51.582 E0.0007
G1 X122.401 Y52.247 E0.0407
G1 X122.399 Y52.254 E0.0005
G1 X122.328 Y52.541 E0.0178
G1 X122.326 Y52.548 E0.0005
G1 X122.184 Y52.984 E0.0277
G1 X122.572 Y58.558 E0.3366
G1 X122.570 Y58.587 E0.0017
G1 X122.346 Y59.684 E0.0675
G1 X122.336 Y59.711 E0.0017
G1 X121.671 Y61.012 E0.0880
G1 X121.649 Y61.041 E0.0022
G1 X120.589 Y62.027 E0.0872
G1 X120.558 Y62.046 E0.0022
G1 X119.345 Y62.559 E0.0793
G1 X119.325 Y62.566 E0.0013
G1 X118.518 Y62.729 E0.0496
G1 X118.497 Y62.731 E0.0013
G1 X61.553 Y62.729 E3.4304
G1 X55.096 Y66.376 E0.4467
G1 X55.080 Y66.383 E0.0011
G1 X54.411 Y66.621 E0.0427
G1 X54.394 Y66.626 E0.0011
G1 X53.441 Y66.789 E0.0582
G1 X53.417 Y66.790 E0.0015
G1 X52.467 Y66.732 E0.0573
G1 X52.443 Y66.727 E0.0015
G1 X51.659 Y66.492 E0.0493
G1 X51.648 Y66.488 E0.0007
G1 X51.233 Y66.311 E0.0272
G1 X51.222 Y66.306 E0.0007
G1 X43.660 Y62.058 E0.5225
G1 X43.647 Y62.049 E0.0010
G1 X43.152 Y61.661 E0.0379
G1 X43.140 Y61.650 E0.0010
G1 X42.434 Y60.896 E0.0622
G1 X42.417 Y60.873 E0.0017
G1 X41.902 Y59.896 E0.0666
G1 X41.892 Y59.870 E0.0017
G1 X41.699 Y58.995 E0.0539
G1 X41.697 Y58.984 E0.0007
G1 X41.648 Y58.539 E0.0270
G1 X41.647 Y58.528 E0.0007
G1 X41.647 Y49.622 E0.5365
G1 X41.648 Y49.610 E0.0007
G1 X41.698 Y49.157 E0.0275
G1 X41.700 Y49.146 E0.0007
G1 X41.894 Y48.289 E0.0529
G1 X41.903 Y48.264 E0.0016
G1 X42.397 Y47.317 E0.0644
G1 X42.412 Y47.294 E0.0016
G1 X43.102 Y46.538 E0.0616
G1 X43.114 Y46.527 E0.0010
G1 E-1.2000 F4200
; inner perimeter
G1 X46.130 Y49.811 F7200
G1 X46.232 Y49.753 F7200
G1 X46.582 Y50.116 F7200
G1 E1.2000 F4200
G1 X53.218 Y46.368 E0.4591 F1050
G1 X59.992 Y50.173 E0.4681
G1 X60.300 Y50.298 E0.0200
G1 X60.627 Y50.339 E0.0198
G1 X116.991 Y50.339 E3.3955
G1 X117.144 Y50.351 E0.0093
G1 X117.217 Y50.368 E0.0045
G1 X117.286 Y50.395 E0.0044
G1 X117.347 Y50.428 E0.0042
G1 X117.391 Y50.461 E0.0034
G1 X117.477 Y50.551 E0.0075
G1 X117.512 Y50.603 E0.0038
G1 X117.548 Y50.676 E0.0049
G1 X117.577 Y50.761 E0.0054
G1 X117.595 Y50.843 E0.0051
G1 X117.603 Y51.034 E0.0115
G1 X117.572 Y51.210 E0.0108
G1 X117.564 Y51.237 E0.0017
G1 X117.299 Y51.725 E0.0335
G1 X117.207 Y52.025 E0.0189
G1 X117.186 Y52.247 E0.0134
G1 X117.573 Y57.797 E0.3351
G1 X60.550 Y57.794 E3.4352
G1 X60.225 Y57.849 E0.0199
G1 X59.989 Y57.944 E0.0153
G1 X53.220 Y61.768 E0.4684
G1 X46.582 Y58.039 E0.4587
G1 X46.582 Y50.116 E0.4773
; outer perimeter
G1 X46.099 Y49.877 F7200
G1 X46.105 Y49.847 E0.0018 F600
G1 X46.133 Y49.815 E0.0026
G1 X53.174 Y45.838 E0.4872
G1 X53.218 Y45.826 E0.0027
G1 X53.258 Y45.836 E0.0025
G1 X60.201 Y49.737 E0.4798
G1 X60.423 Y49.826 E0.0144
G1 X60.657 Y49.856 E0.0142
G1 X117.010 Y49.856 E3.3948
G1 X117.219 Y49.873 E0.0126
G1 X117.359 Y49.906 E0.0087
G1 X117.490 Y49.956 E0.0084
G1 X117.609 Y50.021 E0.0082
G1 X117.713 Y50.099 E0.0078
G1 X117.854 Y50.247 E0.0124
G1 X117.930 Y50.359 E0.0081
G1 X117.994 Y50.488 E0.0087
G1 X118.044 Y50.631 E0.0091
G1 X118.076 Y50.783 E0.0093
G1 X118.088 Y51.065 E0.0170
G1 X118.042 Y51.327 E0.0160
G1 X118.009 Y51.429 E0.0065
G1 X117.746 Y51.913 E0.0332
G1 X117.684 Y52.119 E0.0130
G1 X117.671 Y52.253 E0.0081
G1 X118.089 Y58.260 E0.3628
G1 X118.086 Y58.269 E0.0005
G1 X118.070 Y58.278 E0.0011
G1 X118.061 Y58.280 E0.0006
G1 X60.591 Y58.277 E3.4622
G1 X60.357 Y58.317 E0.0143
G1 X60.199 Y58.380 E0.0103
G1 X53.252 Y62.305 E0.4807
G1 X53.215 Y62.311 E0.0023
G1 X53.183 Y62.301 E0.0020
G1 X46.129 Y58.339 E0.4874
G1 X46.113 Y58.326 E0.0012
G1 X46.108 Y58.320 E0.0005
G1 X46.099 Y58.277 E0.0026
G1 X46.099 Y49.877 E0.5061
; solid layer
G1 X48.323 Y58.546 F7200
G1 X46.992 Y57.216 E0.1133 F1125
G1 X46.992 Y56.533 E0.0411
G1 X49.881 Y59.422 E0.2461
G1 X51.440 Y60.297 E0.1077
G1 X46.992 Y55.850 E0.3789
G1 X46.992 Y55.167 E0.0411
G1 X52.999 Y61.173 E0.5117
G1 X53.219 Y61.297 E0.0152
G1 X53.594 Y61.085 E0.0259
G1 X46.992 Y54.484 E0.5624
G1 X46.992 Y53.800 E0.0411
G1 X54.031 Y60.839 E0.5996
G1 X54.467 Y60.592 E0.0302
G1 X46.992 Y53.117 E0.6368
G1 X46.992 Y52.434 E0.0411
G1 X54.904 Y60.346 E0.6740
G1 X55.340 Y60.099 E0.0302
G1 X46.992 Y51.751 E0.7112
G1 X46.992 Y51.068 E0.0411
G1 X55.777 Y59.852 E0.7484
G1 X56.213 Y59.606 E0.0302
G1 X46.992 Y50.385 E0.7856
G1 X46.992 Y50.355 E0.0018
G1 X47.410 Y50.120 E0.0289
G1 X56.650 Y59.359 E0.7872
G1 X57.086 Y59.113 E0.0302
G1 X47.846 Y49.873 E0.7872
G1 X48.283 Y49.626 E0.0302
G1 X57.523 Y58.866 E0.7872
G1 X57.959 Y58.620 E0.0302
G1 X48.719 Y49.380 E0.7872
G1 X49.156 Y49.133 E0.0302
G1 X58.396 Y58.373 E0.7872
G1 X58.832 Y58.126 E0.0302
G1 X49.592 Y48.887 E0.7872
G1 X50.029 Y48.640 E0.0302
G1 X59.269 Y57.880 E0.7872
G1 X59.705 Y57.633 E0.0302
G1 X50.465 Y48.394 E0.7872
G1 X50.902 Y48.147 E0.0302
G1 X60.193 Y57.438 E0.7915
G1 X60.515 Y57.383 E0.0197
G1 X60.821 Y57.383 E0.0184
G1 X51.339 Y47.901 E0.8079
G1 X51.775 Y47.654 E0.0302
G1 X61.504 Y57.383 E0.8289
G1 X62.187 Y57.383 E0.0412
G1 X52.212 Y47.408 E0.8499
G1 X52.648 Y47.161 E0.0302
G1 X62.871 Y57.384 E0.8709
G1 X63.554 Y57.384 E0.0412
G1 X53.085 Y46.915 E0.8919
G1 X53.218 Y46.839 E0.0093
G1 X54.300 Y47.446 E0.0747
G1 X64.237 Y57.384 E0.8466
G1 X64.920 Y57.384 E0.0412
G1 X55.858 Y48.322 E0.7720
G1 X57.417 Y49.198 E0.1077
G1 X65.603 Y57.384 E0.6974
G1 X66.286 Y57.384 E0.0412
G1 X58.976 Y50.073 E0.6228
G1 X59.813 Y50.544 E0.0579
G1 X60.195 Y50.698 E0.0248
G1 X60.297 Y50.711 E0.0061
G1 X66.969 Y57.384 E0.5685
G1 X67.652 Y57.384 E0.0412
G1 X61.018 Y50.750 E0.5652
G1 X61.701 Y50.750 E0.0411
G1 X68.335 Y57.384 E0.5652
G1 X69.018 Y57.384 E0.0412
G1 X62.384 Y50.750 E0.5652
G1 X63.067 Y50.750 E0.0411
G1 X69.702 Y57.384 E0.5652
G1 X70.385 Y57.384 E0.0412
G1 X63.750 Y50.750 E0.5652
G1 X64.433 Y50.750 E0.0411
G1 X71.068 Y57.384 E0.5652
G1 X71.751 Y57.384 E0.0412
G1 X65.116 Y50.750 E0.5652
G1 X65.800 Y50.750 E0.0411
G1 X72.434 Y57.384 E0.5652
G1 X73.117 Y57.384 E0.0412
G1 X66.483 Y50.750 E0.5652
G1 X67.166 Y50.750 E0.0411
G1 X73.800 Y57.384 E0.5652
G1 X74.483 Y57.384 E0.0412
G1 X67.849 Y50.750 E0.5652
G1 X68.532 Y50.750 E0.0411
G1 X75.166 Y57.384 E0.5652
G1 X75.849 Y57.384 E0.0412
G1 X69.215 Y50.750 E0.5652
G1 X69.898 Y50.750 E0.0411
G1 X76.533 Y57.384 E0.5652
G1 X77.216 Y57.384 E0.0412
G1 X70.581 Y50.750 E0.5652
G1 X71.264 Y50.750 E0.0411
G1 X77.899 Y57.384 E0.5652
G1 X78.582 Y57.384 E0.0412
G1 X71.947 Y50.750 E0.5653
G1 X72.630 Y50.750 E0.0411
G1 X79.265 Y57.384 E0.5653
G1 X79.948 Y57.384 E0.0412
G1 X73.313 Y50.750 E0.5653
G1 X73.996 Y50.750 E0.0411
G1 X80.631 Y57.384 E0.5653
G1 X81.314 Y57.384 E0.0412
G1 X74.679 Y50.750 E0.5653
G1 X75.362 Y50.750 E0.0411
G1 X81.997 Y57.385 E0.5653
G1 X82.680 Y57.385 E0.0412
G1 X76.046 Y50.750 E0.5653
G1 X76.729 Y50.750 E0.0411
G1 X83.364 Y57.385 E0.5653
G1 X84.047 Y57.385 E0.0412
G1 X77.412 Y50.750 E0.5653
G1 X78.095 Y50.750 E0.0411
G1 X84.730 Y57.385 E0.5653
G1 X85.413 Y57.385 E0.0412
G1 X78.778 Y50.750 E0.5653
G1 X79.461 Y50.750 E0.0411
G1 X86.096 Y57.385 E0.5653
G1 X86.779 Y57.385 E0.0412
G1 X80.144 Y50.750 E0.5653
G1 X80.827 Y50.750 E0.0411
G1 X87.462 Y57.385 E0.5653
G1 X88.145 Y57.385 E0.0412
G1 X81.510 Y50.750 E0.5653
G1 X82.193 Y50.750 E0.0411
G1 X88.828 Y57.385 E0.5653
G1 X89.511 Y57.385 E0.0412
G1 X82.876 Y50.750 E0.5653
G1 X83.559 Y50.750 E0.0411
G1 X90.195 Y57.385 E0.5653
G1 X90.878 Y57.385 E0.0412
G1 X84.242 Y50.750 E0.5653
G1 X84.925 Y50.750 E0.0411
G1 X91.561 Y57.385 E0.5653
G1 X92.244 Y57.385 E0.0412
G1 X85.608 Y50.750 E0.5653
G1 X86.292 Y50.750 E0.0411
G1 X92.927 Y57.385 E0.5653
G1 X93.610 Y57.385 E0.0412
G1 X86.975 Y50.750 E0.5653
G1 X87.658 Y50.750 E0.0411
G1 X94.293 Y57.385 E0.5653
G1 X94.976 Y57.385 E0.0412
G1 X88.341 Y50.750 E0.5653
G1 X89.024 Y50.750 E0.0411
G1 X95.659 Y57.385 E0.5653
G1 X96.342 Y57.385 E0.0412
G1 X89.707 Y50.750 E0.5653
G1 X90.390 Y50.750 E0.0411
G1 X97.026 Y57.385 E0.5653
G1 X97.709 Y57.385 E0.0412
G1 X91.073 Y50.750 E0.5653
G1 X91.756 Y50.750 E0.0411
G1 X98.392 Y57.385 E0.5653
G1 X99.075 Y57.385 E0.0412
G1 X92.439 Y50.750 E0.5653
G1 X93.122 Y50.750 E0.0411
G1 X99.758 Y57.385 E0.5653
G1 X100.441 Y57.385 E0.0412
G1 X93.805 Y50.750 E0.5653
G1 X94.488 Y50.750 E0.0411
G1 X101.124 Y57.385 E0.5653
G1 X101.807 Y57.386 E0.0412
G1 X95.171 Y50.750 E0.5654
G1 X95.854 Y50.750 E0.0411
G1 X102.490 Y57.386 E0.5654
G1 X103.173 Y57.386 E0.0412
G1 X96.537 Y50.750 E0.5654
G1 X97.221 Y50.750 E0.0411
G1 X103.857 Y57.386 E0.5654
G1 X104.540 Y57.386 E0.0412
G1 X97.904 Y50.750 E0.5654
G1 X98.587 Y50.750 E0.0411
G1 X105.223 Y57.386 E0.5654
G1 X105.906 Y57.386 E0.0412
G1 X99.270 Y50.750 E0.5654
G1 X99.953 Y50.750 E0.0411
G1 X106.589 Y57.386 E0.5654
G1 X107.272 Y57.386 E0.0412
G1 X100.636 Y50.750 E0.5654
G1 X101.319 Y50.750 E0.0411
G1 X107.955 Y57.386 E0.5654
G1 X108.638 Y57.386 E0.0412
G1 X102.002 Y50.750 E0.5654
G1 X102.685 Y50.750 E0.0411
G1 X109.321 Y57.386 E0.5654
G1 X110.004 Y57.386 E0.0412
G1 X103.368 Y50.750 E0.5654
G1 X104.051 Y50.750 E0.0411
G1 X110.688 Y57.386 E0.5654
G1 X111.371 Y57.386 E0.0412
G1 X104.734 Y50.750 E0.5654
G1 X105.417 Y50.750 E0.0411
G1 X112.054 Y57.386 E0.5654
G1 X112.737 Y57.386 E0.0412
G1 X106.100 Y50.750 E0.5654
G1 X106.783 Y50.750 E0.0411
G1 X113.420 Y57.386 E0.5654
G1 X114.103 Y57.386 E0.0412
G1 X107.467 Y50.750 E0.5654
G1 X108.150 Y50.750 E0.0411
G1 X114.786 Y57.386 E0.5654
G1 X115.469 Y57.386 E0.0412
G1 X108.833 Y50.750 E0.5654
G1 X109.516 Y50.750 E0.0411
G1 X116.152 Y57.386 E0.5654
G1 X116.835 Y57.386 E0.0412
G1 X110.199 Y50.750 E0.5654
G1 X110.882 Y50.750 E0.0411
G1 X117.104 Y56.971 E0.5301
G1 X117.053 Y56.237 E0.0443
G1 X111.565 Y50.750 E0.4675
G1 X112.248 Y50.750 E0.0411
G1 X117.002 Y55.503 E0.4050
G1 X116.950 Y54.769 E0.0443
G1 X112.931 Y50.750 E0.3424
G1 X113.614 Y50.750 E0.0411
G1 X116.899 Y54.035 E0.2799
G1 X116.848 Y53.301 E0.0443
G1 X114.297 Y50.750 E0.2173
G1 X114.980 Y50.750 E0.0411
G1 X116.797 Y52.567 E0.1548
G1 X116.775 Y52.242 E0.0196
G1 X116.802 Y51.945 E0.0180
G1 X116.816 Y51.902 E0.0027
G1 X115.663 Y50.750 E0.0982
G1 X116.346 Y50.750 E0.0411
G1 X117.004 Y51.407 E0.0560
G1 X117.177 Y51.089 E0.0218
G1 X117.191 Y51.007 E0.0050
G1 X117.187 Y50.907 E0.0061
G1 X117.034 Y50.754 E0.0130
G1 E-1.2000 F4200
M117 Layer 2, Z = 0.600
; tool H0.300 W0.420
; inner perimeter
G1 X116.991 Y50.095 F7200
G1 Z0.600 F300
G1 E1.2000 F4200
G1 X117.199 Y50.114 E0.0110 F2100
G1 X117.354 Y50.159 E0.0085
G1 X117.487 Y50.229 E0.0079
G1 X117.599 Y50.321 E0.0076
G1 X117.701 Y50.448 E0.0085
G1 X117.780 Y50.602 E0.0091
G1 X117.833 Y50.788 E0.0101
G1 X117.852 Y51.001 E0.0112
G1 X117.836 Y51.155 E0.0081
G1 X117.797 Y51.311 E0.0084
G1 X117.743 Y51.440 E0.0073
G1 X117.554 Y51.754 E0.0192
G1 X117.457 Y52.010 E0.0144
G1 X117.432 Y52.286 E0.0145
G1 X117.832 Y58.042 E0.3023
G1 X60.603 Y58.038 E2.9979
G1 X60.330 Y58.072 E0.0144
G1 X60.076 Y58.175 E0.0144
G1 X53.221 Y62.049 E0.4125
G1 X46.338 Y58.183 E0.4136
G1 X46.337 Y49.973 E0.4301
G1 X53.218 Y46.087 E0.4139
G1 X60.104 Y49.956 E0.4138
G1 X60.345 Y50.056 E0.0136
G1 X60.629 Y50.095 E0.0150
G1 X116.991 Y50.095 E2.9525
; outer perimeter
G1 X117.010 Y49.675 F7200
G1 X117.279 Y49.700 E0.0141 F1200
G1 X117.513 Y49.768 E0.0128
G1 X117.720 Y49.878 E0.0123
G1 X117.899 Y50.024 E0.0121
G1 X118.055 Y50.218 E0.0130
G1 X118.173 Y50.447 E0.0135
G1 X118.247 Y50.711 E0.0144
G1 X118.274 Y51.004 E0.0154
G1 X118.251 Y51.227 E0.0118
G1 X118.197 Y51.443 E0.0116
G1 X118.119 Y51.630 E0.0106
G1 X117.933 Y51.938 E0.0189
G1 X117.870 Y52.105 E0.0093
G1 X117.854 Y52.290 E0.0097
G1 X118.270 Y58.284 E0.3147
G1 X118.239 Y58.372 E0.0049
G1 X118.227 Y58.388 E0.0010
G1 X118.156 Y58.438 E0.0046
G1 X118.043 Y58.462 E0.0060
G1 X60.629 Y58.458 E3.0076
G1 X60.437 Y58.482 E0.0101
G1 X60.259 Y58.554 E0.0101
G1 X53.337 Y62.466 E0.4165
G1 X53.278 Y62.491 E0.0033
G1 X53.230 Y62.498 E0.0026
G1 X53.172 Y62.492 E0.0031
G1 X53.104 Y62.465 E0.0038
G1 X46.038 Y58.495 E0.4246
G1 X45.984 Y58.456 E0.0035
G1 X45.950 Y58.413 E0.0029
G1 X45.927 Y58.361 E0.0030
G1 X45.918 Y58.302 E0.0031
G1 X45.917 Y49.863 E0.4421
G1 X45.925 Y49.802 E0.0032
G1 X45.944 Y49.753 E0.0027
G1 X45.979 Y49.706 E0.0031
G1 X46.036 Y49.661 E0.0038
G1 X53.101 Y45.671 E0.4250
G1 X53.163 Y45.646 E0.0035
G1 X53.227 Y45.638 E0.0034
G1 X53.273 Y45.645 E0.0024
G1 X53.332 Y45.670 E0.0034
G1 X60.288 Y49.578 E0.4180
G1 X60.455 Y49.647 E0.0095
G1 X60.658 Y49.675 E0.0107
G1 X117.010 Y49.675 E2.9520
; solid layer
G1 X117.087 Y57.685 F7200
G1 X117.426 Y57.346 E0.0251 F2250
G1 X117.387 Y56.791 E0.0292
G1 X116.493 Y57.685 E0.0662
G1 X115.899 Y57.685 E0.0311
G1 X117.349 Y56.235 E0.1074
G1 X117.310 Y55.680 E0.0292
G1 X115.305 Y57.685 E0.1485
