;FLAVOR:RepRap
;TIME:323
;Filament used: 0.323038m
;Layer height: 0.3
;Generated with Cura_SteamEngine 2.5.0
;---------------------------------------
; ; ; Jellybox Start Script Begin ; ; ;
;_______________________________________
G21               ;metric values
G90               ;absolute positioning
M82               ;set extruder to absolute mode
M107              ;start with the fan off
M117 Preparing    ;write Preparing
M190 S45          ;wait for the bed to reach 45C
M109 S180         ;wait for the extruder to reach 180C
G28               ;home all axes
M203 Z4           ;slow Z speed down for greater accuracy when probing
G29               ;auto bed leveling procedure
;M500              ;optionally save the mesh
M203 Z7           ;pick up z speed again for printing
G28 X             ;home x to get as far from the plate as possible
M420 S1           ;(re) enable bed leveling turned off by the G28
G0 Y0 F5000       ;position Y in front
G0 Z15 F3000      ;position Z
M190 S60          ;wait for the bed to reach desired temperature
M109 S210         ;wait for the extruder to reach desired temperature
M300 S440 P300    ;play a tone
G4 P200           ;pause
M0 Click to start print
M420 S1           ;(re) enable bed leveling to make iron-sure
M117 Print starting   ;write Print starting
;================ ;PRINT:LINE start
G90               ;absolute positioning
G92 E0            ;reset the extruder position
M420 S1           ;(re) enable bed leveling to make iron-sure
G0 Z0             ;get Z down
M83               ;relative extrusion mode
G1 E22 F500       ;extrude __mm of feed stock
G1 E18 F400       ;extrude __mm of feed stock
G1 E10 F400       ;extrude __mm of feed stock
G4 S2             ;pause for ooze
M400              ;make sure all is finished
M420 S1           ;(re) enable bed leveling to make iron-sure
G0 F500 X3 Y0 Z0.6;get to the start of the LINE
G1 E2 F300        ;extrude __mm of feed stock
G1 F1000 X104 E10  ;print a thick LINE extruding __mm along the way
M82               ;absolute extrusion mode
G92 E0            ;reset the extruder position
;---------------------------------------------
; ; ; Jellybox Printer Start Script End ; ; ;
;_____________________________________________
;LAYER_COUNT:3
;LAYER:0
M107
G0 F3600 X66.968 Y62.41 Z0.3
;TYPE:SKIRT
G1 F1200 X67.365 Y62.007 E0.0254
G1 X67.815 Y61.665 E0.05078
G1 X68.308 Y61.389 E0.07615
G1 X68.836 Y61.185 E0.10156
G1 X69.386 Y61.058 E0.12691
G1 X70.009 Y61.009 E0.15497
G1 X99.991 Y61.01 E1.5012
G1 X100.555 Y61.05 E1.52658
G1 X101.108 Y61.169 E1.55198
G1 X101.638 Y61.365 E1.57736
G1 X102.135 Y61.633 E1.60271
G1 X102.59 Y61.969 E1.62811
G1 X102.993 Y62.366 E1.65351
G1 X103.336 Y62.816 E1.67891
G1 X103.611 Y63.309 E1.70426
G1 X103.815 Y63.837 E1.72968
G1 X103.942 Y64.388 E1.75507
G1 X103.991 Y65.01 E1.78308
G1 X103.991 Y94.991 E3.12926
G1 X103.951 Y95.555 E3.15465
G1 X103.832 Y96.108 E3.18005
G1 X103.636 Y96.638 E3.20542
G1 X103.368 Y97.135 E3.23078
G1 X103.032 Y97.59 E3.25617
G1 X102.635 Y97.993 E3.28157
G1 X102.185 Y98.335 E3.30695
G1 X101.692 Y98.611 E3.33232
G1 X101.164 Y98.815 E3.35774
G1 X100.614 Y98.942 E3.38308
G1 X99.991 Y98.991 E3.41114
G1 X70.009 Y98.991 E4.75737
G1 X69.445 Y98.951 E4.78276
G1 X68.892 Y98.832 E4.80816
G1 X68.362 Y98.636 E4.83353
G1 X67.865 Y98.368 E4.85888
G1 X67.41 Y98.032 E4.88428
G1 X67.007 Y97.635 E4.90968
G1 X66.665 Y97.185 E4.93506
G1 X66.389 Y96.692 E4.96043
G1 X66.185 Y96.164 E4.98584
G1 X66.058 Y95.614 E5.01119
G1 X66.009 Y94.991 E5.03925
G1 X66.009 Y65.009 E6.38548
G1 X66.049 Y64.445 E6.41086
G1 X66.168 Y63.892 E6.43626
G1 X66.364 Y63.362 E6.46164
G1 X66.632 Y62.865 E6.48699
G1 X66.652 Y62.838 E6.4885
G0 F1140 X66.968 Y62.41
G0 F3600 X67.364 Y62.567
G1 F1800 E6.51239
G1 F1200 X67.756 Y62.201 E6.53647
G1 X68.198 Y61.898 E6.56053
G1 X68.681 Y61.663 E6.58465
G1 X69.192 Y61.503 E6.60869
G1 X69.722 Y61.42 E6.63278
G1 X70.009 Y61.409 E6.64567
G1 X99.991 Y61.41 E7.9919
G1 X100.526 Y61.45 E8.01599
G1 X101.049 Y61.569 E8.04007
G1 X101.548 Y61.764 E8.06413
G1 X102.013 Y62.032 E8.08823
G1 X102.433 Y62.365 E8.11229
G1 X102.799 Y62.757 E8.13637
G1 X103.103 Y63.199 E8.16046
G1 X103.337 Y63.682 E8.18456
G1 X103.497 Y64.193 E8.2086
G1 X103.58 Y64.723 E8.23269
G1 X103.591 Y65.01 E8.24559
G1 X103.591 Y94.991 E9.59177
G1 X103.551 Y95.526 E9.61586
G1 X103.432 Y96.049 E9.63994
G1 X103.237 Y96.548 E9.664
G1 X102.969 Y97.013 E9.6881
G1 X102.636 Y97.433 E9.71216
G1 X102.244 Y97.799 E9.73624
G1 X101.802 Y98.102 E9.76031
G1 X101.319 Y98.337 E9.78442
G1 X100.808 Y98.497 E9.80847
G1 X100.278 Y98.58 E9.83255
G1 X99.991 Y98.591 E9.84545
G1 X70.009 Y98.591 E11.19168
G1 X69.474 Y98.551 E11.21577
G1 X68.951 Y98.432 E11.23985
G1 X68.452 Y98.237 E11.26391
G1 X67.987 Y97.969 E11.288
G1 X67.567 Y97.636 E11.31207
G1 X67.201 Y97.244 E11.33615
G1 X66.898 Y96.802 E11.36021
G1 X66.663 Y96.319 E11.38433
G1 X66.503 Y95.808 E11.40837
G1 X66.42 Y95.278 E11.43246
G1 X66.409 Y94.991 E11.44536
G1 X66.409 Y65.009 E12.79159
G1 X66.449 Y64.474 E12.81567
G1 X66.568 Y63.951 E12.83976
G1 X66.763 Y63.452 E12.86381
G1 X67.031 Y62.987 E12.88791
G1 X67.033 Y62.984 E12.88807
G0 F1140 X67.364 Y62.567
G0 F3600 X67.758 Y62.734
G1 F1800 E12.91196
G1 F1200 X68.145 Y62.408 E12.93468
G1 X68.578 Y62.147 E12.95738
G1 X69.046 Y61.957 E12.98006
G1 X69.539 Y61.844 E13.00277
G1 X70.009 Y61.809 E13.02393
G1 X99.991 Y61.81 E14.37016
G1 X100.495 Y61.85 E14.39286
G1 X100.986 Y61.969 E14.41555
G1 X101.453 Y62.164 E14.43827
G1 X101.883 Y62.429 E14.46095
G1 X102.266 Y62.76 E14.48368
G1 X102.592 Y63.146 E14.50637
G1 X102.853 Y63.579 E14.52907
G1 X103.043 Y64.047 E14.55175
G1 X103.156 Y64.54 E14.57446
G1 X103.191 Y65.01 E14.59562
G1 X103.191 Y94.991 E15.9418
G1 X103.151 Y95.495 E15.9645
G1 X103.032 Y95.986 E15.98719
G1 X102.838 Y96.453 E16.00989
G1 X102.572 Y96.883 E16.0326
G1 X102.242 Y97.266 E16.0553
G1 X101.855 Y97.592 E16.07802
G1 X101.422 Y97.853 E16.10072
G1 X100.954 Y98.043 E16.1234
G1 X100.461 Y98.156 E16.14611
G1 X99.991 Y98.191 E16.16727
G1 X70.009 Y98.191 E17.5135
G1 X69.505 Y98.151 E17.5362
G1 X69.014 Y98.032 E17.55888
G1 X68.547 Y97.838 E17.58159
G1 X68.117 Y97.572 E17.60429
G1 X67.734 Y97.242 E17.62699
G1 X67.408 Y96.855 E17.64971
G1 X67.147 Y96.422 E17.67242
G1 X66.957 Y95.954 E17.69509
G1 X66.844 Y95.461 E17.7178
G1 X66.809 Y94.991 E17.73897
G1 X66.809 Y65.009 E19.08519
G1 X66.849 Y64.505 E19.1079
G1 X66.968 Y64.014 E19.13058
G1 X67.162 Y63.547 E19.15329
G1 X67.414 Y63.139 E19.17482
G0 F1140 X67.428 Y63.117
G0 X67.758 Y62.734
G1 F4200 E17.87482
G0 F3600 X70.614 Y64.335
G0 X70.614 Y65.614
G0 X70.67 Y65.67
G0 X70.6 Y65.6
;TYPE:WALL-INNER
G1 F1800 E19.19871
G1 F1200 X99.4 Y65.6 E20.49186
G1 X99.4 Y94.4 E21.78501
G1 X70.6 Y94.4 E23.07817
G1 X70.6 Y66.132 E24.34744
G0 F1140 X70.6 Y65.6
G0 F3600 X70.2 Y65.2
;TYPE:WALL-OUTER
G1 F1800 E24.37132
G1 F1200 X99.8 Y65.2 E25.7004
G1 X99.8 Y94.8 E27.02947
G1 X70.2 Y94.8 E28.35855
G1 X70.2 Y65.732 E29.66374
G0 F1140 X70.2 Y65.2
G0 F3600 X70.4 Y65.2
G0 X70.871 Y65.78
;TYPE:SKIN
G1 F1800 E29.68762
G1 F1200 X99.219 Y94.127 E31.48768
G1 X99.289 Y94.197
G0 F3600 X98.744 Y94.219
G1 F1200 X70.779 Y66.253 E33.26349
G1 X70.709 Y66.183
G0 F3600 X70.779 Y66.819
G1 F1200 X98.178 Y94.219 E35.00335
G1 X98.248 Y94.289
G0 F3600 X97.613 Y94.219
G1 F1200 X70.779 Y67.385 E36.70731
G1 X70.709 Y67.315
G0 F3600 X70.779 Y67.95
G1 F1200 X97.047 Y94.219 E38.37536
G1 X97.117 Y94.289
G0 F3600 X96.481 Y94.219
G1 F1200 X70.779 Y68.516 E40.00746
G1 X70.709 Y68.446
G0 F3600 X70.779 Y69.082
G1 F1200 X95.916 Y94.219 E41.60366
G1 X95.986 Y94.289
G0 F3600 X95.35 Y94.219
G1 F1200 X70.779 Y69.647 E43.16394
G1 X70.709 Y69.577
G0 F3600 X70.779 Y70.213
G1 F1200 X94.784 Y94.219 E44.68829
G1 X94.854 Y94.289
G0 F3600 X94.219 Y94.219
G1 F1200 X70.779 Y70.779 E46.17673
G1 X70.709 Y70.709
G0 F3600 X70.779 Y71.344
G1 F1200 X93.653 Y94.219 E47.62925
G1 X93.723 Y94.289
G0 F3600 X93.087 Y94.219
G1 F1200 X70.779 Y71.91 E49.04584
G1 X70.709 Y71.84
G0 F3600 X70.779 Y72.476
G1 F1200 X92.522 Y94.219 E50.42652
G1 X92.592 Y94.289
G0 F3600 X91.956 Y94.219
G1 F1200 X70.779 Y73.042 E51.77125
G1 X70.709 Y72.972
G0 F3600 X70.779 Y73.607
G1 F1200 X91.39 Y94.219 E53.08008
G1 X91.46 Y94.289
G0 F3600 X90.825 Y94.219
G1 F1200 X70.779 Y74.173 E54.353
G1 X70.709 Y74.103
G0 F3600 X70.779 Y74.739
G1 F1200 X90.259 Y94.219 E55.58998
G1 X90.329 Y94.289
G0 F3600 X89.693 Y94.219
G1 F1200 X70.779 Y75.304 E56.79105
G1 X70.709 Y75.234
G0 F3600 X70.779 Y75.87
G1 F1200 X89.127 Y94.219 E57.95617
G1 X89.197 Y94.289
G0 F3600 X88.562 Y94.219
G1 F1200 X70.779 Y76.436 E59.08539
G1 X70.709 Y76.366
G0 F3600 X70.779 Y77.001
G1 F1200 X87.996 Y94.219 E60.1787
G1 X88.066 Y94.289
G0 F3600 X87.43 Y94.219
G1 F1200 X70.779 Y77.567 E61.23607
G1 X70.709 Y77.497
G0 F3600 X70.779 Y78.133
G1 F1200 X86.865 Y94.219 E62.25753
G1 X86.935 Y94.289
G0 F3600 X86.299 Y94.219
G1 F1200 X70.779 Y78.698 E63.24308
G1 X70.709 Y78.628
G0 F3600 X70.779 Y79.264
G1 F1200 X85.733 Y94.219 E64.19268
G1 X85.803 Y94.289
G0 F3600 X85.168 Y94.219
G1 F1200 X70.779 Y79.83 E65.10638
G1 X70.709 Y79.76
G0 F3600 X70.779 Y80.395
G1 F1200 X84.602 Y94.219 E65.98417
G1 X84.672 Y94.289
G0 F3600 X84.036 Y94.219
G1 F1200 X70.779 Y80.961 E66.82602
G1 X70.709 Y80.891
G0 F3600 X70.779 Y81.527
G1 F1200 X83.471 Y94.219 E67.63196
G1 X83.541 Y94.289
G0 F3600 X82.905 Y94.219
G1 F1200 X70.779 Y82.092 E68.402
G1 X70.709 Y82.022
G0 F3600 X70.779 Y82.658
G1 F1200 X82.339 Y94.219 E69.13609
G1 X82.409 Y94.289
G0 F3600 X81.774 Y94.219
G1 F1200 X70.779 Y83.224 E69.83427
G1 X70.709 Y83.154
G0 F3600 X70.779 Y83.79
G1 F1200 X81.208 Y94.219 E70.49651
G1 X81.278 Y94.289
G0 F3600 X80.642 Y94.219
G1 F1200 X70.779 Y84.355 E71.12284
G1 X70.709 Y84.285
G0 F3600 X70.779 Y84.921
G1 F1200 X80.077 Y94.219 E71.71326
G1 X80.147 Y94.289
G0 F3600 X79.511 Y94.219
G1 F1200 X70.779 Y85.487 E72.26774
G1 X70.709 Y85.417
G0 F3600 X70.779 Y86.052
G1 F1200 X78.945 Y94.219 E72.78631
G1 X79.015 Y94.289
G0 F3600 X78.379 Y94.219
G1 F1200 X70.779 Y86.618 E73.26894
G1 X70.709 Y86.548
G0 F3600 X70.779 Y87.184
G1 F1200 X77.814 Y94.219 E73.71566
G1 X77.884 Y94.289
G0 F3600 X77.248 Y94.219
G1 F1200 X70.779 Y87.749 E74.12648
G1 X70.709 Y87.679
G0 F3600 X70.779 Y88.315
G1 F1200 X76.682 Y94.219 E74.50135
G1 X76.752 Y94.289
G0 F3600 X76.117 Y94.219
G1 F1200 X70.779 Y88.881 E74.84031
G1 X70.709 Y88.811
G0 F3600 X70.779 Y89.446
G1 F1200 X75.551 Y94.219 E75.14336
G1 X75.621 Y94.289
G0 F3600 X74.985 Y94.219
G1 F1200 X70.779 Y90.012 E75.41048
G1 X70.709 Y89.942
G0 F3600 X70.779 Y90.578
G1 F1200 X74.42 Y94.219 E75.64168
G1 X74.49 Y94.289
G0 F3600 X73.854 Y94.219
G1 F1200 X70.779 Y91.143 E75.83697
G1 X70.709 Y91.073
G0 F3600 X70.779 Y91.709
G1 F1200 X73.288 Y94.219 E75.99632
G1 X73.358 Y94.289
G0 F3600 X72.723 Y94.219
G1 F1200 X70.779 Y92.275 E76.11977
G1 X70.709 Y92.205
G0 F3600 X70.779 Y92.84
G1 F1200 X72.157 Y94.219 E76.2073
G1 X72.227 Y94.289
G0 F3600 X71.591 Y94.219
G1 F1200 X70.779 Y93.406 E76.2589
G1 X70.709 Y93.336
G0 F3600 X70.779 Y93.972
G1 F1200 X71.026 Y94.219 E76.27458
G0 F3600 X99.219 Y93.562
G1 F1200 X71.436 Y65.78 E78.03877
G1 X71.366 Y65.71
G0 F3600 X72.002 Y65.78
G1 F1200 X99.219 Y92.996 E79.76701
G1 X99.289 Y93.066
G0 F3600 X99.219 Y92.43
G1 F1200 X72.568 Y65.78 E81.45931
G1 X72.498 Y65.71
G0 F3600 X73.133 Y65.78
G1 F1200 X99.219 Y91.865 E83.11574
G1 X99.289 Y91.935
G0 F3600 X99.219 Y91.299
G1 F1200 X73.699 Y65.78 E84.73622
G1 X73.629 Y65.71
G0 F3600 X74.265 Y65.78
G1 F1200 X99.219 Y90.733 E86.32077
G1 X99.289 Y90.803
G0 F3600 X99.219 Y90.168
G1 F1200 X74.83 Y65.78 E87.86943
G1 X74.76 Y65.71
G0 F3600 X75.396 Y65.78
G1 F1200 X99.219 Y89.602 E89.38216
G1 X99.289 Y89.672
G0 F3600 X99.219 Y89.036
G1 F1200 X75.962 Y65.78 E90.85894
G1 X75.892 Y65.71
G0 F3600 X76.528 Y65.78
G1 F1200 X99.219 Y88.471 E92.29982
G1 X99.289 Y88.541
G0 F3600 X99.219 Y87.905
G1 F1200 X77.093 Y65.78 E93.70479
G1 X77.023 Y65.71
G0 F3600 X77.659 Y65.78
G1 F1200 X99.219 Y87.339 E95.07381
G1 X99.289 Y87.409
G0 F3600 X99.219 Y86.774
G1 F1200 X78.225 Y65.78 E96.40693
G1 X78.155 Y65.71
G0 F3600 X78.79 Y65.78
G1 F1200 X99.219 Y86.208 E97.70413
G1 X99.289 Y86.278
G0 F3600 X99.219 Y85.642
G1 F1200 X79.356 Y65.78 E98.9654
G1 X79.286 Y65.71
G0 F3600 X79.922 Y65.78
G1 F1200 X99.219 Y85.076 E100.19072
G1 X99.289 Y85.146
G0 F3600 X99.219 Y84.511
G1 F1200 X80.487 Y65.78 E101.38017
G1 X80.417 Y65.71
G0 F3600 X81.053 Y65.78
G1 F1200 X99.219 Y83.945 E102.53368
G1 X99.289 Y84.015
G0 F3600 X99.219 Y83.379
G1 F1200 X81.619 Y65.78 E103.65124
G1 X81.549 Y65.71
G0 F3600 X82.184 Y65.78
G1 F1200 X99.219 Y82.814 E104.73293
G1 X99.289 Y82.884
G0 F3600 X99.219 Y82.248
G1 F1200 X82.75 Y65.78 E105.77868
G1 X82.68 Y65.71
G0 F3600 X83.316 Y65.78
G1 F1200 X99.219 Y81.682 E106.78849
G1 X99.289 Y81.752
G0 F3600 X99.219 Y81.117
G1 F1200 X83.881 Y65.78 E107.76242
G1 X83.811 Y65.71
G0 F3600 X84.447 Y65.78
G1 F1200 X99.219 Y80.551 E108.7004
G1 X99.289 Y80.621
G0 F3600 X99.219 Y79.985
G1 F1200 X85.013 Y65.78 E109.60245
G1 X84.943 Y65.71
G0 F3600 X85.579 Y65.78
G1 F1200 X99.219 Y79.42 E110.46859
G1 X99.289 Y79.49
G0 F3600 X99.219 Y78.854
G1 F1200 X86.144 Y65.78 E111.29882
G1 X86.074 Y65.71
G0 F3600 X86.71 Y65.78
G1 F1200 X99.219 Y78.288 E112.09311
G1 X99.289 Y78.358
G0 F3600 X99.219 Y77.723
G1 F1200 X87.276 Y65.78 E112.85149
G1 X87.206 Y65.71
G0 F3600 X87.841 Y65.78
G1 F1200 X99.219 Y77.157 E113.57396
G1 X99.289 Y77.227
G0 F3600 X99.219 Y76.591
G1 F1200 X88.407 Y65.78 E114.26048
G1 X88.337 Y65.71
G0 F3600 X88.973 Y65.78
G1 F1200 X99.219 Y76.025 E114.91107
G1 X99.289 Y76.095
G0 F3600 X99.219 Y75.46
G1 F1200 X89.538 Y65.78 E115.52578
G1 X89.468 Y65.71
G0 F3600 X90.104 Y65.78
G1 F1200 X99.219 Y74.894 E116.10455
G1 X99.289 Y74.964
G0 F3600 X99.219 Y74.328
G1 F1200 X90.67 Y65.78 E116.64738
G1 X90.6 Y65.71
G0 F3600 X91.235 Y65.78
G1 F1200 X99.219 Y73.763 E117.15433
G1 X99.289 Y73.833
G0 F3600 X99.219 Y73.197
G1 F1200 X91.801 Y65.78 E117.62534
G1 X91.731 Y65.71
G0 F3600 X92.367 Y65.78
G1 F1200 X99.219 Y72.631 E118.06041
G1 X99.289 Y72.701
G0 F3600 X99.219 Y72.066
G1 F1200 X92.932 Y65.78 E118.4596
G1 X92.862 Y65.71
G0 F3600 X93.498 Y65.78
G1 F1200 X99.219 Y71.5 E118.82285
G1 X99.289 Y71.57
G0 F3600 X99.219 Y70.934
G1 F1200 X94.064 Y65.78 E119.15016
G1 X93.994 Y65.71
G0 F3600 X94.629 Y65.78
G1 F1200 X99.219 Y70.369 E119.4416
G1 X99.289 Y70.439
G0 F3600 X99.219 Y69.803
G1 F1200 X95.195 Y65.78 E119.69709
G1 X95.125 Y65.71
G0 F3600 X95.761 Y65.78
M104 S210
G1 F1200 X99.219 Y69.237 E119.91664
G1 X99.289 Y69.307
G0 F3600 X99.219 Y68.672
G1 F1200 X96.327 Y65.78 E120.10028
G1 X96.257 Y65.71
G0 F3600 X96.892 Y65.78
G1 F1200 X99.219 Y68.106 E120.24801
G1 X99.289 Y68.176
G0 F3600 X99.219 Y67.54
G1 F1200 X97.458 Y65.78 E120.3598
G1 X97.388 Y65.71
G0 F3600 X98.024 Y65.78
G1 F1200 X99.219 Y66.975 E120.43569
G1 X99.289 Y67.045
G0 F3600 X99.219 Y66.409
G1 F1200 X98.589 Y65.78 E120.47566
G1 X98.519 Y65.71
G0 F3600 X99.155 Y65.78
G1 F1200 X99.219 Y65.843 E120.47969
G0 F3600 X99 Y66
G0 X70.67 Y65.67
G0 X70.6 Y65.6
;TIME_ELAPSED:139.529059
;LAYER:1
M140 S55
M106 S63.8
G0 F7200 X70.6 Y65.6 Z0.6
;TYPE:WALL-INNER
G1 F2100 X99.4 Y65.6 E121.77285
G1 X99.4 Y94.4 E123.066
G1 X70.6 Y94.4 E124.35915
G1 X70.6 Y66.132 E125.62842
G0 F1995 X70.6 Y65.6
G0 F7200 X70.2 Y65.2
;TYPE:WALL-OUTER
G1 F1800 E125.65231
G1 F1500 X99.8 Y65.2 E126.98138
G1 X99.8 Y94.8 E128.31046
G1 X70.2 Y94.8 E129.63953
G1 X70.2 Y65.732 E130.94472
G0 F1425 X70.2 Y65.2
G0 F7200 X70.4 Y65.2
G0 X71.115 Y65.78
;TYPE:SKIN
G1 F1800 E130.96861
G1 F1500 X70.779 Y66.115 E130.98991
G0 F7200 X70.779 Y66.681
G1 F1500 X71.681 Y65.78 E131.04716
G1 X71.751 Y65.71
G0 F7200 X72.247 Y65.78
G1 F1500 X70.779 Y67.247 E131.14034
G1 X70.709 Y67.317
G0 F7200 X70.779 Y67.812
G1 F1500 X72.812 Y65.78 E131.26941
G1 X72.882 Y65.71
G0 F7200 X73.378 Y65.78
G1 F1500 X70.779 Y68.378 E131.43441
G1 X70.709 Y68.448
G0 F7200 X70.779 Y68.944
G1 F1500 X73.944 Y65.78 E131.63536
G1 X74.014 Y65.71
G0 F7200 X74.509 Y65.78
G1 F1500 X70.779 Y69.51 E131.87221
G1 X70.709 Y69.58
G0 F7200 X70.779 Y70.075
G1 F1500 X75.075 Y65.78 E132.14498
G1 X75.145 Y65.71
G0 F7200 X75.641 Y65.78
