;FLAVOR:RepRap
;TIME:222
;---------------------------------------
; ; ; Jellybox Start Script Begin ; ; ;
;_______________________________________
G21               ;metric values
G90               ;absolute positioning
M82               ;set extruder to absolute mode
M107              ;start with the fan off
M117 Preparing    ;write Preparing
M190 S45          ;wait for the bed to reach 45C
M109 S180         ;wait for the extruder to reach 180C
G28               ;home all axes
M203 Z4           ;slow Z speed down for greater accuracy when probing
G29               ;auto bed leveling procedure
;M500              ;optionally save the mesh
M203 Z7           ;pick up z speed again for printing
G28 X             ;home x to get as far from the plate as possible
M420 S1           ;(re) enable bed leveling turned off by the G28
G0 Y0 F5000       ;position Y in front
G0 Z15 F3000      ;position Z
M190 S60          ;wait for the bed to reach desired temperature
M109 S210         ;wait for the extruder to reach desired temperature
M300 S440 P100    ;play a tone
G4 P200           ;pause
M300 S440 P100    ;play a tone
G4 P200           ;pause
M300 S440 P800    ;play a tone
M0
M420 S1           ;(re) enable bed leveling to make iron-sure
M117 Print starting   ;write Print starting
;================ ;PRINT:LINE start
G90               ;absolute positioning
G92 E0            ;reset the extruder position
M420 S1           ;(re) enable bed leveling to make iron-sure
G0 Z0             ;get Z down
M83               ;relative extrusion mode
G1 E22 F500       ;extrude __mm of feed stock
G1 E18 F400       ;extrude __mm of feed stock
G1 E10 F400       ;extrude __mm of feed stock
G4 S2             ;pause for ooze
M400              ;make sure all is finished
M420 S1           ;(re) enable bed leveling to make iron-sure
G0 F500 X3 Y0 Z0.6;get to the start of the LINE
G1 E2 F300        ;extrude __mm of feed stock
G1 F1000 X104 E10  ;print a thick LINE extruding __mm along the way
M82               ;absolute extrusion mode
G92 E0            ;reset the extruder position
;---------------------------------------------
; ; ; Jellybox Printer Start Script End ; ; ;
;_____________________________________________

;Generated with Cura_SteamEngine 2.1.2
;LAYER_COUNT:20
;LAYER:0
M107
G1 F2700.000000 E-1.20000
G0 F6000.00000 X72.160 Y71.906 Z0.300
;TYPE:SKIRT
G1 F900.000 E0.00000
G1 F1200.00000 X72.613 Y71.544 E0.03124
G1 X73.111 Y71.249 E0.06243
G1 X73.645 Y71.024 E0.09365
G1 X74.205 Y70.876 E0.12486
G1 X75.000 Y70.800 E0.16789
G1 X94.999 Y70.800 E1.24547
G1 X95.577 Y70.840 E1.27669
G1 X96.144 Y70.959 E1.30790
G1 X96.689 Y71.155 E1.33911
G1 X97.202 Y71.424 E1.37032
G1 X97.673 Y71.761 E1.40153
G1 X98.093 Y72.160 E1.43274
G1 X98.455 Y72.613 E1.46398
G1 X98.750 Y73.111 E1.49517
G1 X98.975 Y73.645 E1.52639
G1 X99.123 Y74.205 E1.55760
G1 X99.199 Y75.000 E1.60064
G1 X99.199 Y85.000 E2.13945
G1 X99.159 Y85.578 E2.17067
G1 X99.040 Y86.145 E2.20188
G1 X98.844 Y86.690 E2.23309
G1 X98.575 Y87.203 E2.26430
G1 X98.238 Y87.674 E2.29551
G1 X97.839 Y88.094 E2.32672
G1 X97.386 Y88.456 E2.35796
G1 X96.888 Y88.751 E2.38915
G1 X96.354 Y88.976 E2.42037
G1 X95.794 Y89.124 E2.45158
G1 X94.999 Y89.200 E2.49462
G1 X75.000 Y89.200 E3.57219
G1 X74.422 Y89.160 E3.60341
G1 X73.855 Y89.041 E3.63462
G1 X73.310 Y88.845 E3.66583
G1 X72.797 Y88.576 E3.69704
G1 X72.326 Y88.239 E3.72825
G1 X71.906 Y87.840 E3.75946
G1 X71.544 Y87.387 E3.79071
G1 X71.249 Y86.889 E3.82189
G1 X71.024 Y86.355 E3.85312
G1 X70.876 Y85.795 E3.88432
G1 X70.800 Y85.000 E3.92736
G1 X70.800 Y75.000 E4.46617
G1 X70.840 Y74.422 E4.49739
G1 X70.959 Y73.855 E4.52860
G1 X71.155 Y73.310 E4.55981
G1 X71.424 Y72.797 E4.59102
G1 X71.761 Y72.326 E4.62223
G1 X71.855 Y72.227 E4.62958
G0 F1140.00000 X72.160 Y71.906
G0 F6000.000 X72.630 Y72.133
G1 F900.000 E4.65345
G1 F1200.00000 X73.075 Y71.817 E4.68286
G1 X73.560 Y71.570 E4.71219
G1 X74.077 Y71.396 E4.74158
G1 X74.614 Y71.300 E4.77097
G1 X75.000 Y71.280 E4.79180
G1 X94.999 Y71.280 E5.86937
G1 X95.543 Y71.320 E5.89876
G1 X96.075 Y71.439 E5.92814
G1 X96.584 Y71.634 E5.95751
G1 X97.059 Y71.902 E5.98689
G1 X97.489 Y72.236 E6.01623
G1 X97.866 Y72.630 E6.04561
G1 X98.182 Y73.075 E6.07502
G1 X98.429 Y73.560 E6.10434
G1 X98.603 Y74.077 E6.13374
G1 X98.699 Y74.614 E6.16313
G1 X98.719 Y75.000 E6.18396
G1 X98.719 Y85.000 E6.72277
G1 X98.679 Y85.544 E6.75216
G1 X98.560 Y86.076 E6.78153
G1 X98.365 Y86.585 E6.81090
G1 X98.097 Y87.060 E6.84029
G1 X97.763 Y87.490 E6.86963
G1 X97.369 Y87.867 E6.89901
G1 X96.924 Y88.183 E6.92842
G1 X96.439 Y88.430 E6.95774
G1 X95.922 Y88.604 E6.98714
G1 X95.385 Y88.700 E7.01653
G1 X94.999 Y88.720 E7.03735
G1 X75.000 Y88.720 E8.11493
G1 X74.456 Y88.680 E8.14432
G1 X73.924 Y88.561 E8.17369
G1 X73.415 Y88.366 E8.20306
G1 X72.940 Y88.098 E8.23245
G1 X72.510 Y87.764 E8.26179
G1 X72.133 Y87.370 E8.29117
G1 X71.817 Y86.925 E8.32058
G1 X71.570 Y86.440 E8.34990
G1 X71.396 Y85.923 E8.37929
G1 X71.300 Y85.386 E8.40869
G1 X71.280 Y85.000 E8.42951
G1 X71.280 Y75.000 E8.96833
G1 X71.320 Y74.456 E8.99772
G1 X71.439 Y73.924 E9.02709
G1 X71.634 Y73.415 E9.05646
G1 X71.902 Y72.940 E9.08585
G1 X72.236 Y72.510 E9.11518
G1 X72.310 Y72.439 E9.12071
G0 F1140.00000 X72.630 Y72.133
G0 F6000.000 X73.097 Y72.378
G1 F900.000 E9.14458
G1 F1200.00000 X73.531 Y72.112 E9.17201
G1 X74.001 Y71.918 E9.19940
G1 X74.496 Y71.799 E9.22683
G1 X75.000 Y71.760 E9.25407
G1 X94.999 Y71.760 E10.33165
G1 X95.506 Y71.800 E10.35905
G1 X96.001 Y71.919 E10.38648
G1 X96.471 Y72.114 E10.41390
G1 X96.904 Y72.380 E10.44128
G1 X97.291 Y72.710 E10.46868
G1 X97.621 Y73.097 E10.49609
G1 X97.887 Y73.531 E10.52351
G1 X98.081 Y74.001 E10.55091
G1 X98.200 Y74.496 E10.57834
G1 X98.239 Y75.000 E10.60558
G1 X98.239 Y85.000 E11.14439
G1 X98.199 Y85.507 E11.17180
G1 X98.080 Y86.002 E11.19923
G1 X97.885 Y86.472 E11.22664
G1 X97.619 Y86.905 E11.25403
G1 X97.289 Y87.292 E11.28143
G1 X96.902 Y87.622 E11.30883
G1 X96.468 Y87.888 E11.33626
G1 X95.998 Y88.082 E11.36366
G1 X95.503 Y88.201 E11.39109
G1 X94.999 Y88.240 E11.41833
G1 X75.000 Y88.240 E12.49590
G1 X74.493 Y88.200 E12.52330
G1 X73.998 Y88.081 E12.55074
G1 X73.528 Y87.886 E12.57815
G1 X73.095 Y87.620 E12.60553
G1 X72.708 Y87.290 E12.63294
G1 X72.378 Y86.903 E12.66034
G1 X72.112 Y86.469 E12.68777
G1 X71.918 Y85.999 E12.71517
G1 X71.799 Y85.504 E12.74260
G1 X71.760 Y85.000 E12.76983
G1 X71.760 Y75.000 E13.30865
G1 X71.800 Y74.493 E13.33605
G1 X71.919 Y73.998 E13.36348
G1 X72.114 Y73.528 E13.39090
G1 X72.380 Y73.095 E13.41828
G1 X72.710 Y72.708 E13.44568
G1 X72.760 Y72.665 E13.44924
G0 F1140.00000 X73.097 Y72.378
G1 F2700.000 E12.24924
G0 F6000.00000 X73.951 Y73.467
G0 X75.720 Y75.720
G0 X75.748 Y75.748
G0 X75.790 Y75.790
G0 X75.720 Y75.720
;TYPE:WALL-INNER
G1 F900.000 E13.47311
G1 X94.279 Y75.720 E14.47309
G1 X94.279 Y84.280 E14.93432
G1 X75.720 Y84.280 E15.93430
G1 X75.720 Y76.163 E16.37166
G0 F855.00000 X75.720 Y75.720
G0 F6000.000 X75.240 Y75.240
;TYPE:WALL-OUTER
G1 F900.000 E16.39553
G1 X94.759 Y75.240 E17.44724
G1 X94.759 Y84.760 E17.96019
G1 X75.240 Y84.760 E19.01190
G1 X75.240 Y75.683 E19.50098
G0 F855.00000 X75.240 Y75.240
G0 F6000.000 X75.887 Y75.887
;TYPE:SKIN
G1 F900.000 E19.52485
G1 X84.111 Y84.111 E20.15152
G0 X84.195 Y84.195
G0 F6000.000 X84.790 Y84.111
G1 F900.000 X76.566 Y75.888 E20.77815
G0 X76.482 Y75.804
G0 F6000.000 X77.245 Y75.888
G1 F900.000 X85.469 Y84.111 E21.40478
G0 X85.553 Y84.195
G0 F6000.000 X86.148 Y84.111
G1 F900.000 X77.924 Y75.888 E22.03141
G0 X77.840 Y75.804
G0 F6000.000 X78.603 Y75.888
G1 F900.000 X86.827 Y84.111 E22.65804
G0 X86.911 Y84.195
G0 F6000.000 X87.505 Y84.111
G1 F900.000 X79.282 Y75.888 E23.28463
G0 X79.198 Y75.804
G0 F6000.000 X79.961 Y75.888
G1 F900.000 X88.184 Y84.111 E23.91122
G0 X88.268 Y84.195
G0 F6000.000 X88.863 Y84.111
G1 F900.000 X80.639 Y75.888 E24.53785
G0 X80.555 Y75.804
G0 F6000.000 X81.318 Y75.888
G1 F900.000 X89.542 Y84.111 E25.16448
G0 X89.626 Y84.195
G0 F6000.000 X90.221 Y84.111
G1 F900.000 X81.997 Y75.888 E25.79111
G0 X81.913 Y75.804
G0 F6000.000 X82.676 Y75.888
G1 F900.000 X90.899 Y84.111 E26.41770
G0 X90.983 Y84.195
G0 F6000.000 X91.578 Y84.111
G1 F900.000 X83.355 Y75.888 E27.04429
G0 X83.271 Y75.804
G0 F6000.000 X84.033 Y75.888
G1 F900.000 X92.257 Y84.111 E27.67092
G0 X92.341 Y84.195
G0 F6000.000 X92.936 Y84.111
G1 F900.000 X84.712 Y75.888 E28.29755
G0 X84.628 Y75.804
G0 F6000.000 X85.391 Y75.888
G1 F900.000 X93.615 Y84.111 E28.92418
G0 X93.699 Y84.195
G0 F6000.000 X94.110 Y83.927
G1 F900.000 X86.070 Y75.888 E29.53679
G0 X85.986 Y75.804
G0 F6000.000 X86.749 Y75.888
G1 F900.000 X94.110 Y83.249 E30.09769
G0 X94.194 Y83.333
G0 F6000.000 X94.110 Y82.570
G1 F900.000 X87.428 Y75.888 E30.60686
G0 X87.344 Y75.804
G0 F6000.000 X88.106 Y75.888
G1 F900.000 X94.110 Y81.891 E31.06433
G0 X94.194 Y81.975
G0 F6000.000 X94.110 Y81.212
G1 F900.000 X88.785 Y75.888 E31.47005
G0 X88.701 Y75.804
G0 F6000.000 X89.464 Y75.888
G1 F900.000 X94.110 Y80.533 E31.82404
G0 X94.194 Y80.617
G0 F6000.000 X94.110 Y79.854
G1 F900.000 X90.143 Y75.888 E32.12629
G0 X90.059 Y75.804
G0 F6000.000 X90.822 Y75.888
G1 F900.000 X94.110 Y79.176 E32.37683
G0 X94.194 Y79.260
G0 F6000.000 X94.110 Y78.497
G1 F900.000 X91.501 Y75.888 E32.57564
G0 X91.417 Y75.804
G0 F6000.000 X92.179 Y75.888
G1 F900.000 X94.110 Y77.818 E32.72274
G0 X94.194 Y77.902
G0 F6000.000 X94.110 Y77.139
G1 F900.000 X92.858 Y75.888 E32.81810
G0 X92.774 Y75.804
G0 F6000.000 X93.537 Y75.888
G1 F900.000 X94.110 Y76.460 E32.86173
G0 F6000.00000 X83.432 Y84.111
G1 F900.000 X75.887 Y76.566 E33.43666
G0 X75.803 Y76.482
G0 F6000.000 X75.887 Y77.245
G1 F900.000 X82.754 Y84.111 E33.95988
G0 X82.838 Y84.195
G0 F6000.000 X82.075 Y84.111
G1 F900.000 X75.887 Y77.923 E34.43141
G0 X75.803 Y77.839
G0 F6000.000 X75.887 Y78.602
G1 F900.000 X81.396 Y84.111 E34.85119
G0 X81.480 Y84.195
G0 F6000.000 X80.717 Y84.111
G1 F900.000 X75.887 Y79.281 E35.21924
G0 X75.803 Y79.197
G0 F6000.000 X75.887 Y79.960
G1 F900.000 X80.038 Y84.111 E35.53554
G0 X80.122 Y84.195
G0 F6000.000 X79.360 Y84.111
G1 F900.000 X75.887 Y80.639 E35.80015
G0 X75.803 Y80.555
G0 F6000.000 X75.887 Y81.317
G1 F900.000 X78.681 Y84.111 E36.01305
G0 X78.765 Y84.195
G0 F6000.000 X78.002 Y84.111
G1 F900.000 X75.887 Y81.996 E36.17421
G0 X75.803 Y81.912
G0 F6000.000 X75.887 Y82.675
G1 F900.000 X77.323 Y84.111 E36.28363
G0 X77.407 Y84.195
G0 F6000.000 X76.644 Y84.111
G1 F900.000 X75.887 Y83.354 E36.34132
G0 X75.803 Y83.270
G0 F6000.000 X75.887 Y84.033
G1 F900.000 X75.965 Y84.111 E36.34726
G0 F6000.00000 X76.200 Y83.800
;LAYER:1
M106 S153.000
G0 X75.720 Y84.280 Z0.600
;TYPE:WALL-INNER
G1 F1500.000 X75.720 Y75.720 E36.80849
G1 X94.279 Y75.720 E37.80847
G1 X94.279 Y84.280 E38.26970
G1 X76.163 Y84.280 E39.24581
G0 F1425.00000 X75.720 Y84.280
G0 F6000.000 X75.240 Y84.760
;TYPE:WALL-OUTER
G1 F900.000 E39.26968
G1 F1500.00000 X75.240 Y75.240 E39.78263
G1 X94.759 Y75.240 E40.83434
G1 X94.759 Y84.760 E41.34730
G1 X75.683 Y84.760 E42.37514
G0 F1425.00000 X75.240 Y84.760
G0 F6000.000 X76.090 Y84.111
;TYPE:SKIN
G1 F900.000 E42.39901
G1 F1500.00000 X84.314 Y75.887 E43.02567
G0 X84.398 Y75.803
G0 F6000.000 X83.635 Y75.887
G1 F1500.000 X75.888 Y83.635 E43.61603
G0 X75.804 Y83.719
G0 F6000.000 X75.888 Y82.956
G1 F1500.000 X82.957 Y75.887 E44.15469
G0 X83.041 Y75.803
G0 F6000.000 X82.278 Y75.887
G1 F1500.000 X75.888 Y82.277 E44.64161
G0 X75.804 Y82.361
G0 F6000.000 X75.888 Y81.598
G1 F1500.000 X81.599 Y75.887 E45.07678
G0 X81.683 Y75.803
G0 F6000.000 X80.920 Y75.887
G1 F1500.000 X75.888 Y80.919 E45.46022
G0 X75.804 Y81.003
G0 F6000.000 X75.888 Y80.241
G1 F1500.000 X80.241 Y75.887 E45.79196
G0 X80.325 Y75.803
G0 F6000.000 X79.562 Y75.887
G1 F1500.000 X75.888 Y79.562 E46.07195
G0 X75.804 Y79.646
G0 F6000.000 X75.888 Y78.883
G1 F1500.000 X78.884 Y75.887 E46.30025
G0 X78.968 Y75.803
G0 F6000.000 X78.205 Y75.887
G1 F1500.000 X75.888 Y78.204 E46.47680
G0 X75.804 Y78.288
G0 F6000.000 X75.888 Y77.525
G1 F1500.000 X77.526 Y75.887 E46.60162
G0 X77.610 Y75.803
G0 F6000.000 X76.847 Y75.887
G1 F1500.000 X75.888 Y76.846 E46.67469
G0 X75.804 Y76.930
G0 F6000.000 X75.888 Y76.168
G1 F1500.000 X76.168 Y75.887 E46.69607
G0 F6000.00000 X76.769 Y84.111
G1 F1500.000 X84.993 Y75.887 E47.32274
G0 X85.077 Y75.803
G0 F6000.000 X85.672 Y75.887
G1 F1500.000 X77.447 Y84.111 E47.94944
G0 X77.363 Y84.195
G0 F6000.000 X78.126 Y84.111
G1 F1500.000 X86.351 Y75.887 E48.57615
G0 X86.435 Y75.803
G0 F6000.000 X87.029 Y75.887
G1 F1500.000 X78.805 Y84.111 E49.20281
G0 X78.721 Y84.195
G0 F6000.000 X79.484 Y84.111
G1 F1500.000 X87.708 Y75.887 E49.82948
G0 X87.792 Y75.803
G0 F6000.000 X88.387 Y75.887
G1 F1500.000 X80.163 Y84.111 E50.45615
G0 X80.079 Y84.195
G0 F6000.000 X80.842 Y84.111
G1 F1500.000 X89.066 Y75.887 E51.08282
G0 X89.150 Y75.803
G0 F6000.000 X89.745 Y75.887
G1 F1500.000 X81.520 Y84.111 E51.70952
G0 X81.436 Y84.195
G0 F6000.000 X82.199 Y84.111
G1 F1500.000 X90.424 Y75.887 E52.33623
G0 X90.508 Y75.803
G0 F6000.000 X91.102 Y75.887
G1 F1500.000 X82.878 Y84.111 E52.96289
G0 X82.794 Y84.195
G0 F6000.000 X83.557 Y84.111
G1 F1500.000 X91.781 Y75.887 E53.58956
G0 X91.865 Y75.803
G0 F6000.000 X92.460 Y75.887
G1 F1500.000 X84.236 Y84.111 E54.21623
G0 X84.152 Y84.195
G0 F6000.000 X84.915 Y84.111
G1 F1500.000 X93.139 Y75.887 E54.84290
G0 X93.223 Y75.803
G0 F6000.000 X93.818 Y75.887
G1 F1500.000 X85.593 Y84.111 E55.46960
G0 X85.509 Y84.195
G0 F6000.000 X86.272 Y84.111
G1 F1500.000 X94.110 Y76.274 E56.06682
G0 X94.194 Y76.190
G0 F6000.000 X94.110 Y76.953
G1 F1500.000 X86.951 Y84.111 E56.61230
G0 X86.867 Y84.195
G0 F6000.000 X87.630 Y84.111
G1 F1500.000 X94.110 Y77.631 E57.10607
G0 X94.194 Y77.547
G0 F6000.000 X94.110 Y78.310
G1 F1500.000 X88.309 Y84.111 E57.54811
G0 X88.225 Y84.195
G0 F6000.000 X88.987 Y84.111
G1 F1500.000 X94.110 Y78.989 E57.93844
G0 X94.194 Y78.905
G0 F6000.000 X94.110 Y79.668
G1 F1500.000 X89.666 Y84.111 E58.27703
G0 X89.582 Y84.195
G0 F6000.000 X90.345 Y84.111
G1 F1500.000 X94.110 Y80.347 E58.56389
G0 X94.194 Y80.263
G0 F6000.000 X94.110 Y81.025
G1 F1500.000 X91.024 Y84.111 E58.79904
G0 X90.940 Y84.195
G0 F6000.000 X91.703 Y84.111
G1 F1500.000 X94.110 Y81.704 E58.98245
G0 X94.194 Y81.620
G0 F6000.000 X94.110 Y82.383
G1 F1500.000 X92.382 Y84.111 E59.11413
G0 X92.298 Y84.195
G0 F6000.000 X93.060 Y84.111
G1 F1500.000 X94.110 Y83.062 E59.19410
G0 X94.194 Y82.978
G0 F6000.000 X94.110 Y83.741
G1 F1500.000 X93.739 Y84.111 E59.22233
G0 F6000.00000 X93.739 Y83.800
;LAYER:2
M106 S206.719
G0 X94.110 Y83.927 Z0.900
;TYPE:FILL
G1 F2700.000 X86.070 Y75.888 E59.83494
G0 X85.986 Y75.804
G0 F6000.000 X85.986 Y75.820
G0 X82.676 Y75.888
G1 F2700.000 X90.899 Y84.111 E60.46153
G0 X90.983 Y84.195
G0 F6000.000 X90.983 Y84.180
G0 X87.505 Y84.111
G1 F2700.000 X79.282 Y75.888 E61.08812
G0 X79.198 Y75.804
G0 F6000.000 X79.198 Y75.820
G0 X75.887 Y75.887
G1 F2700.000 X84.111 Y84.111 E61.71479
G0 X84.195 Y84.195
G0 F6000.000 X84.195 Y84.180
G0 X80.717 Y84.111
G1 F2700.000 X75.887 Y79.281 E62.08283
G0 X75.803 Y79.197
G0 F6000.000 X75.820 Y79.197
G0 X75.887 Y82.675
G1 F2700.000 X77.323 Y84.111 E62.19226
G0 X77.407 Y84.195
G0 F6000.000 X77.407 Y84.180
G0 X89.464 Y75.888
G1 F2700.000 X94.110 Y80.533 E62.54624
G0 X94.194 Y80.617
G0 F6000.000 X94.179 Y80.617
G0 X94.110 Y77.139
G1 F2700.000 X92.858 Y75.888 E62.64161
G0 X92.774 Y75.804
G1 F2700.000 E61.44161
G0 F6000.00000 X92.774 Y75.820
G0 X94.279 Y75.720
;TYPE:WALL-INNER
G1 F900.000 E62.64161
G1 F1500.00000 X94.279 Y84.280 E63.10283
G1 X75.720 Y84.280 E64.10282
G1 X75.720 Y75.720 E64.56404
G1 X93.836 Y75.720 E65.54016
G0 F1425.00000 X94.279 Y75.720
G0 F6000.000 X94.759 Y75.240
;TYPE:WALL-OUTER
G1 F900.000 E65.56403
G1 F1500.00000 X94.759 Y84.760 E66.07698
G1 X75.240 Y84.760 E67.12869
G1 X75.240 Y75.240 E67.64164
G1 X94.316 Y75.240 E68.66948
G0 F1425.00000 X94.759 Y75.240
G0 F6000.000 X93.799 Y76.059
;LAYER:3
M106 S206.844
G0 X93.818 Y75.887 Z1.200
;TYPE:FILL
G1 F900.000 E68.69335
G1 F2700.00000 X85.593 Y84.111 E69.32006
G0 X85.509 Y84.195
G0 F6000.000 X85.509 Y84.180
G0 X82.199 Y84.111
G1 F2700.000 X90.424 Y75.887 E69.94676
G0 X90.508 Y75.803
