; G-Code generated by Simplify3D(R) Version 3.0.2
; May 7, 2016 at 7:42:26 PM
; Settings Summary
;   processName,Process1
;   applyToModels,Cube20x20_roof
;   profileName,Default (modified)
;   profileVersion,2015-12-23 03:05:20
;   baseProfile,Default (modified)
;   printMaterial,PLA Lankeda Green
;   printQuality,Medium
;   printExtruders,
;   extruderName,Primary Extruder
;   extruderToolheadNumber,0
;   extruderDiameter,0.4
;   extruderAutoWidth,1
;   extruderWidth,0.48
;   extrusionMultiplier,0.9
;   extruderUseRetract,1
;   extruderRetractionDistance,1.5
;   extruderExtraRestartDistance,0.07
;   extruderRetractionZLift,0.07
;   extruderRetractionSpeed,9600
;   extruderUseCoasting,0
;   extruderCoastingDistance,0.2
;   extruderUseWipe,0
;   extruderWipeDistance,5
;   primaryExtruder,0
;   layerHeight,0.2
;   topSolidLayers,3
;   bottomSolidLayers,0
;   perimeterOutlines,1
;   printPerimetersInsideOut,1
;   startPointOption,2
;   startPointOriginX,0
;   startPointOriginY,0
;   startPointOriginZ,300
;   sequentialIslands,0
;   spiralVaseMode,1
;   firstLayerHeightPercentage,100
;   firstLayerWidthPercentage,80
;   firstLayerUnderspeed,0.5
;   useRaft,0
;   raftExtruder,0
;   raftLayers,1
;   raftOffset,3
;   raftSeparationDistance,0.14
;   raftInfill,85
;   disableRaftBaseLayers,0
;   useSkirt,1
;   skirtExtruder,0
;   skirtLayers,1
;   skirtOutlines,3
;   skirtOffset,4
;   usePrimePillar,0
;   primePillarExtruder,999
;   primePillarWidth,12
;   primePillarLocation,7
;   primePillarSpeedMultiplier,1
;   useOozeShield,0
;   oozeShieldExtruder,999
;   oozeShieldOffset,2
;   oozeShieldOutlines,1
;   oozeShieldSidewallShape,1
;   oozeShieldSidewallAngle,30
;   oozeShieldSpeedMultiplier,1
;   infillExtruder,0
;   internalInfillPattern,Rectilinear
;   externalInfillPattern,Rectilinear
;   infillPercentage,0
;   outlineOverlapPercentage,25
;   infillExtrusionWidthPercentage,125
;   minInfillLength,4
;   infillLayerInterval,1
;   infillAngles,0,90
;   overlapInfillAngles,0
;   generateSupport,0
;   supportExtruder,0
;   supportInfillPercentage,30
;   supportExtraInflation,0
;   denseSupportLayers,2
;   denseSupportInfillPercentage,60
;   supportLayerInterval,1
;   supportHorizontalPartOffset,0.3
;   supportUpperSeparationLayers,1
;   supportLowerSeparationLayers,1
;   supportType,0
;   supportGridSpacing,3
;   maxOverhangAngle,55
;   supportAngles,0
;   temperatureName,Primary Extruder
;   temperatureNumber,0
;   temperatureSetpointCount,1
;   temperatureSetpointLayers,1
;   temperatureSetpointTemperatures,210
;   temperatureStabilizeAtStartup,1
;   temperatureHeatedBed,0
;   temperatureRelayBetweenLayers,0
;   temperatureRelayBetweenLoops,0
;   fanLayers,1,2
;   fanSpeeds,0,45
;   blipFanToFullPower,0
;   adjustSpeedForCooling,1
;   minSpeedLayerTime,15
;   minCoolingSpeedSlowdown,50
;   increaseFanForCooling,0
;   minFanLayerTime,45
;   maxCoolingFanSpeed,100
;   increaseFanForBridging,1
;   bridgingFanSpeed,100
;   use5D,1
;   relativeEdistances,0
;   allowEaxisZeroing,1
;   independentExtruderAxes,0
;   includeM10123,0
;   stickySupport,1
;   applyToolheadOffsets,0
;   gcodeXoffset,0
;   gcodeYoffset,0
;   gcodeZoffset,0
;   overrideMachineDefinition,0
;   machineTypeOverride,0
;   strokeXoverride,200
;   strokeYoverride,200
;   strokeZoverride,200
;   originOffsetXoverride,0
;   originOffsetYoverride,0
;   originOffsetZoverride,0
;   homeXdirOverride,-1
;   homeYdirOverride,-1
;   homeZdirOverride,-1
;   flipXoverride,1
;   flipYoverride,-1
;   flipZoverride,1
;   toolheadOffsets,0,0|0,0|0,0|0,0|0,0|0,0
;   overrideFirmwareConfiguration,0
;   firmwareTypeOverride,RepRap (Marlin/Repetier/Sprinter)
;   GPXconfigOverride,r2
;   baudRateOverride,115200
;   overridePrinterModels,0
;   printerModelsOverride
;   startingGcode,G28 ; home all axes,G29; level the thing
;   layerChangeGcode,
;   retractionGcode,
;   toolChangeGcode,
;   endingGcode,;End GCode CURA inspired,M104 S0                     ;extruder heater off,M140 S0                     ;heated bed heater off (if you have it),M107                      ; turn fan off,G91                              ;relative positioning,G1 E-1 F300                  ;retract the filament a bit before lifting the nozzle to release some of the pressure,G1 Z+0.5 E-5 X-20 Y-20 F{travel_speed} ;move Z up a bit and retract filament even more,G28 X0 Y0                              ;move X/Y to min endstops so the head is out of the way,M84                         ;steppers off,G90                         ;absolute positionings
;   createX3G,0
;   celebration,0
;   celebrationSong,Random Song
;   createMB5G,0
;   postProcessing,
;   defaultSpeed,3000
;   outlineUnderspeed,0.7
;   solidInfillUnderspeed,0.7
;   supportUnderspeed,0.9
;   rapidXYspeed,7200
;   rapidZspeed,360
;   minBridgingArea,50
;   bridgingExtraInflation,0
;   bridgingExtrusionMultiplier,1
;   bridgingSpeedMultiplier,1
;   filamentDiameter,1.75
;   filamentPricePerKg,46
;   filamentDensity,1.25
;   useMinPrintHeight,0
;   minPrintHeight,93
;   useMaxPrintHeight,0
;   maxPrintHeight,20
;   useDiaphragm,0
;   diaphragmLayerInterval,20
;   robustSlicing,1
;   mergeAllIntoSolid,0
;   onlyRetractWhenCrossingOutline,0
;   retractBetweenLayers,1
;   useRetractionMinTravel,0
;   retractionMinTravel,1.5
;   retractWhileWiping,1
;   onlyWipeOutlines,1
;   avoidCrossingOutline,0
;   maxMovementDetourFactor,3
;   toolChangeRetractionDistance,12
;   toolChangeExtraRestartDistance,-0.5
;   toolChangeRetractionSpeed,600
;   allowThinWallGapFill,1
;   thinWallAllowedOverlapPercentage,15
;   horizontalSizeCompensation,0
;---------------------------------------
; ; ; Jellybox Start Script Begin ; ; ;
;_______________________________________
G21               ;metric values
G90               ;absolute positioning
M82               ;set extruder to absolute mode
M107              ;start with the fan off
M117 Preparing    ;write Preparing
M190 S45          ;wait for the bed to reach 45C
M109 S180         ;wait for the extruder to reach 180C
G28               ;home all axes
M203 Z4           ;slow Z speed down for greater accuracy when probing
G29               ;auto bed leveling procedure
;M500              ;optionally save the mesh
M203 Z7           ;pick up z speed again for printing
G28 X             ;home x to get as far from the plate as possible
M420 S1           ;(re) enable bed leveling turned off by the G28
G0 Y0 F5000       ;position Y in front
G0 Z15 F3000      ;position Z
M190 S60          ;wait for the bed to reach desired temperature
M109 S210         ;wait for the extruder to reach desired temperature
M300 S440 P100    ;play a tone
G4 P200           ;pause
M300 S440 P100    ;play a tone
G4 P200           ;pause
M300 S440 P800    ;play a tone
M0
M420 S1           ;(re) enable bed leveling to make iron-sure
M117 Print starting   ;write Print starting
;================ ;PRINT:LINE start
G90               ;absolute positioning
G92 E0            ;reset the extruder position
M420 S1           ;(re) enable bed leveling to make iron-sure
G0 Z0             ;get Z down
M83               ;relative extrusion mode
G1 E22 F500       ;extrude __mm of feed stock
G1 E18 F400       ;extrude __mm of feed stock
G1 E10 F400       ;extrude __mm of feed stock
G4 S2             ;pause for ooze
M400              ;make sure all is finished
M420 S1           ;(re) enable bed leveling to make iron-sure
G0 F500 X3 Y0 Z0.6;get to the start of the LINE
G1 E2 F300        ;extrude __mm of feed stock
G1 F1000 X104 E10  ;print a thick LINE extruding __mm along the way
M82               ;absolute extrusion mode
G92 E0            ;reset the extruder position
;---------------------------------------------
; ; ; Jellybox Printer Start Script End ; ; ;
;_____________________________________________
G92 E0
G1 E-1.5000 F9600
G1 Z0.270 F360
; layer 1, Z = 0.2
T0
; tool H0.200 W0.384
; skirt
G1 X69.983 Y67.663 F7200
G1 Z0.200 F360
G1 E0.0700 F2880
G92 E0
G1 X72.663 Y64.982 E0.1089 F1500
G1 X73.104 Y64.799 E0.1227
G1 X96.896 Y64.799 E0.8063
G1 X97.337 Y64.982 E0.8201
G1 X100.017 Y67.663 E0.9290
G1 X100.200 Y68.104 E0.9427
G1 X100.200 Y91.896 E1.6264
G1 X100.017 Y92.337 E1.6401
G1 X97.337 Y95.018 E1.7491
G1 X96.896 Y95.200 E1.7628
G1 X73.104 Y95.200 E2.4465
G1 X72.663 Y95.018 E2.4602
G1 X69.983 Y92.337 E2.5692
G1 X69.800 Y91.896 E2.5829
G1 X69.800 Y68.104 E3.2666
G1 X69.983 Y67.663 E3.2803
G92 E0
G1 E-1.5000 F9600
G1 Z0.270 F360
G1 X70.390 Y67.935 F7200
G1 Z0.200 F360
G1 E0.0700 F9600
G92 E0
G1 X72.935 Y65.389 E0.1035 F1500
G1 X73.200 Y65.279 E0.1117
G1 X96.800 Y65.279 E0.7899
G1 X97.065 Y65.389 E0.7981
G1 X99.610 Y67.935 E0.9016
G1 X99.720 Y68.199 E0.9098
G1 X99.720 Y91.801 E1.5880
G1 X99.610 Y92.065 E1.5962
G1 X97.065 Y94.611 E1.6997
G1 X96.800 Y94.720 E1.7079
G1 X73.200 Y94.720 E2.3861
G1 X72.935 Y94.611 E2.3944
G1 X70.390 Y92.065 E2.4978
G1 X70.280 Y91.801 E2.5060
G1 X70.280 Y68.199 E3.1843
G1 X70.390 Y67.935 E3.1925
G92 E0
G1 E-1.5000 F9600
G1 Z0.270 F360
G1 X70.797 Y68.207 F7200
G1 Z0.200 F360
G1 E0.0700 F9600
G92 E0
G1 X73.207 Y65.796 E0.0980 F1500
G1 X73.295 Y65.759 E0.1007
G1 X96.705 Y65.759 E0.7734
G1 X96.793 Y65.796 E0.7762
G1 X99.203 Y68.207 E0.8741
G1 X99.240 Y68.295 E0.8769
G1 X99.240 Y91.705 E1.5496
G1 X99.203 Y91.793 E1.5523
G1 X96.793 Y94.204 E1.6503
G1 X96.705 Y94.240 E1.6531
G1 X73.295 Y94.240 E2.3258
G1 X73.207 Y94.204 E2.3285
G1 X70.797 Y91.793 E2.4265
G1 X70.760 Y91.705 E2.4292
G1 X70.760 Y68.295 E3.1020
G1 X70.797 Y68.207 E3.1047
G92 E0
G1 E-1.5000 F9600
G1 Z0.270 F360
; outer perimeter
G1 X75.192 Y70.191 F7200
G1 Z0.200 F360
G1 E0.0700 F9600
G92 E0
G1 X94.808 Y70.191 E0.5637 F1050
G1 X94.808 Y89.808 E1.1274
G1 X75.192 Y89.808 E1.6911
G1 X75.192 Y70.191 E2.2549
G92 E0
G1 E-1.5000 F9600
G1 Z0.270 F360
; layer 2, Z = 0.4
M106 S114
; tool H0.200 W0.480
; outer perimeter
G1 X75.240 Y70.239 F7200
G1 Z0.200 F360
G1 E0.0700 F9600
G92 E0
G1 X94.760 Y70.239 Z0.200 E0.4382 F1050
G1 X94.760 Y89.760 Z0.250 E0.9641
G1 X75.240 Y89.760 Z0.300 E1.5777
G1 X75.240 Y70.239 Z0.350 E2.2789
; layer 3, Z = 0.6
; outer perimeter
G92 E0
G1 X94.760 Y70.239 Z0.400 E0.7012 F1050
G1 X94.760 Y89.760 Z0.450 E1.4024
G1 X75.240 Y89.760 Z0.500 E2.1036
G1 X75.240 Y70.239 Z0.550 E2.8048
; layer 4, Z = 0.8
; outer perimeter
G92 E0
G1 X94.760 Y70.239 Z0.600 E0.7012 F1050
G1 X94.760 Y89.760 Z0.650 E1.4024
G1 X75.240 Y89.760 Z0.700 E2.1036
G1 X75.240 Y70.239 Z0.750 E2.8048
; layer 5, Z = 1
; outer perimeter
G92 E0
G1 X94.760 Y70.239 Z0.800 E0.7012 F1050
G1 X94.760 Y89.760 Z0.850 E1.4024
G1 X75.240 Y89.760 Z0.900 E2.1036
G1 X75.240 Y70.239 Z0.950 E2.8048
; layer 6, Z = 1.2
; outer perimeter
G92 E0
G1 X94.760 Y70.239 Z1.000 E0.7012 F1050
G1 X94.760 Y89.760 Z1.050 E1.4024
G1 X75.240 Y89.760 Z1.100 E2.1036
G1 X75.240 Y70.239 Z1.150 E2.8048
; layer 7, Z = 1.4
; outer perimeter
G92 E0
G1 X94.760 Y70.239 Z1.200 E0.7012 F1050
G1 X94.760 Y89.760 Z1.250 E1.4024
G1 X75.240 Y89.760 Z1.300 E2.1036
G1 X75.240 Y70.239 Z1.350 E2.8048
; layer 8, Z = 1.6
; outer perimeter
G92 E0
G1 X94.760 Y70.239 Z1.400 E0.7012 F1050
G1 X94.760 Y89.760 Z1.450 E1.4024
G1 X75.240 Y89.760 Z1.500 E2.1036
G1 X75.240 Y70.239 Z1.550 E2.8048
; layer 9, Z = 1.8
; outer perimeter
G92 E0
G1 X94.760 Y70.239 Z1.600 E0.7012 F1050
G1 X94.760 Y89.760 Z1.650 E1.4024
G1 X75.240 Y89.760 Z1.700 E2.1036
G1 X75.240 Y70.239 Z1.750 E2.8048
; layer 10, Z = 2
; outer perimeter
G92 E0
G1 X94.760 Y70.239 Z1.800 E0.7012 F1050
G1 X94.760 Y89.760 Z1.850 E1.4024
G1 X75.240 Y89.760 Z1.900 E2.1036
G1 X75.240 Y70.239 Z1.950 E2.8048
; layer 11, Z = 2.2
; outer perimeter
G92 E0
G1 X94.760 Y70.239 Z2.000 E0.7012 F1050
G1 X94.760 Y89.760 Z2.050 E1.4024
G1 X75.240 Y89.760 Z2.100 E2.1036
G1 X75.240 Y70.239 Z2.150 E2.8048
; layer 12, Z = 2.4
; outer perimeter
G92 E0
G1 X94.760 Y70.239 Z2.200 E0.7012 F1050
G1 X94.760 Y89.760 Z2.250 E1.4024
G1 X75.240 Y89.760 Z2.300 E2.1036
G1 X75.240 Y70.239 Z2.350 E2.8048
; layer 13, Z = 2.6
; outer perimeter
G92 E0
G1 X94.760 Y70.239 Z2.400 E0.7012 F1050
G1 X94.760 Y89.760 Z2.450 E1.4024
G1 X75.240 Y89.760 Z2.500 E2.1036
G1 X75.240 Y70.239 Z2.550 E2.8048
; layer 14, Z = 2.8
; outer perimeter
G92 E0
G1 X94.760 Y70.239 Z2.600 E0.7012 F1050
G1 X94.760 Y89.760 Z2.650 E1.4024
G1 X75.240 Y89.760 Z2.700 E2.1036
G1 X75.240 Y70.239 Z2.750 E2.8048
; layer 15, Z = 3
; outer perimeter
G92 E0
G1 X94.760 Y70.239 Z2.800 E0.7012 F1050
G1 X94.760 Y89.760 Z2.850 E1.4024
G1 X75.240 Y89.760 Z2.900 E2.1036
G1 X75.240 Y70.239 Z2.950 E2.8048
; layer 16, Z = 3.2
; outer perimeter
G92 E0
G1 X94.760 Y70.239 Z3.000 E0.7012 F1050
G1 X94.760 Y89.760 Z3.050 E1.4024
G1 X75.240 Y89.760 Z3.100 E2.1036
G1 X75.240 Y70.239 Z3.150 E2.8048
; layer 17, Z = 3.4
; outer perimeter
G92 E0
G1 X94.760 Y70.239 Z3.200 E0.7012 F1050
G1 X94.760 Y89.760 Z3.250 E1.4024
G1 X75.240 Y89.760 Z3.300 E2.1036
G1 X75.240 Y70.239 Z3.350 E2.8048
; layer 18, Z = 3.6
; outer perimeter
G92 E0
G1 X94.760 Y70.239 Z3.400 E0.7012 F1050
G1 X94.760 Y89.760 Z3.450 E1.4024
G1 X75.240 Y89.760 Z3.500 E2.1036
G1 X75.240 Y70.239 Z3.550 E2.8048
; layer 19, Z = 3.8
; outer perimeter
G92 E0
G1 X94.760 Y70.239 Z3.600 E0.7012 F1050
G1 X94.760 Y89.760 Z3.650 E1.4024
G1 X75.240 Y89.760 Z3.700 E2.1036
G1 X75.240 Y70.239 Z3.750 E2.8048
; layer 20, Z = 4
; outer perimeter
G92 E0
G1 X94.760 Y70.239 Z3.800 E0.7012 F1050
G1 X94.760 Y89.760 Z3.850 E1.4024
G1 X75.240 Y89.760 Z3.900 E2.1036
G1 X75.240 Y70.239 Z3.950 E2.8048
; layer 21, Z = 4.2
; outer perimeter
G92 E0
G1 X94.760 Y70.239 Z4.000 E0.7012 F1050
G1 X94.760 Y89.760 Z4.050 E1.4024
G1 X75.240 Y89.760 Z4.100 E2.1036
G1 X75.240 Y70.239 Z4.150 E2.8048
; layer 22, Z = 4.4
; outer perimeter
G92 E0
G1 X94.760 Y70.239 Z4.200 E0.7012 F1050
G1 X94.760 Y89.760 Z4.250 E1.4024
G1 X75.240 Y89.760 Z4.300 E2.1036
G1 X75.240 Y70.239 Z4.350 E2.8048
; layer 23, Z = 4.6
; outer perimeter
G92 E0
G1 X94.760 Y70.239 Z4.400 E0.7012 F1050
G1 X94.760 Y89.760 Z4.450 E1.4024
G1 X75.240 Y89.760 Z4.500 E2.1036
G1 X75.240 Y70.239 Z4.550 E2.8048
; layer 24, Z = 4.8
; outer perimeter
G92 E0
G1 X94.760 Y70.239 Z4.600 E0.7012 F1050
G1 X94.760 Y89.760 Z4.650 E1.4024
G1 X75.240 Y89.760 Z4.700 E2.1036
G1 X75.240 Y70.239 Z4.750 E2.8048
; layer 25, Z = 5
; outer perimeter
G92 E0
G1 X94.760 Y70.239 Z4.800 E0.7012 F1050
G1 X94.760 Y89.760 Z4.850 E1.4024
G1 X75.240 Y89.760 Z4.900 E2.1036
G1 X75.240 Y70.239 Z4.950 E2.8048
; layer 26, Z = 5.2
; outer perimeter
G92 E0
G1 X94.760 Y70.239 Z5.000 E0.7012 F1050
G1 X94.760 Y89.760 Z5.050 E1.4024
G1 X75.240 Y89.760 Z5.100 E2.1036
G1 X75.240 Y70.239 Z5.150 E2.8048
; layer 27, Z = 5.4
; outer perimeter
G92 E0
G1 X94.760 Y70.239 Z5.200 E0.7012 F1050
G1 X94.760 Y89.760 Z5.250 E1.4024
G1 X75.240 Y89.760 Z5.300 E2.1036
G1 X75.240 Y70.239 Z5.350 E2.8048
; layer 28, Z = 5.6
; outer perimeter
G92 E0
G1 X94.760 Y70.239 Z5.400 E0.7012 F1050
G1 X94.760 Y89.760 Z5.450 E1.4024
G1 X75.240 Y89.760 Z5.500 E2.1036
G1 X75.240 Y70.239 Z5.550 E2.8048
; layer 29, Z = 5.8
; outer perimeter
G92 E0
G1 X94.760 Y70.239 Z5.600 E0.7012 F1050
G1 X94.760 Y89.760 Z5.650 E1.4024
G1 X75.240 Y89.760 Z5.700 E2.1036
G1 X75.240 Y70.239 Z5.750 E2.8048
; layer 30, Z = 6
; outer perimeter
G92 E0
G1 X94.760 Y70.239 Z5.800 E0.7012 F1050
G1 X94.760 Y89.760 Z5.850 E1.4024
G1 X75.240 Y89.760 Z5.900 E2.1036
G1 X75.240 Y70.239 Z5.950 E2.8048
; layer 31, Z = 6.2
; outer perimeter
G92 E0
G1 X94.760 Y70.239 Z6.000 E0.7012 F1050
G1 X94.760 Y89.760 Z6.050 E1.4024
G1 X75.240 Y89.760 Z6.100 E2.1036
G1 X75.240 Y70.239 Z6.150 E2.8048
; layer 32, Z = 6.4
