; G-Code generated by Simplify3D(R) Version 3.0.2
; Jun 18, 2016 at 9:37:23 AM
; Settings Summary
;   processName,evil dicky
;   applyToModels,EvilDucky
;   profileName,BB Pro JB (modified)
;   profileVersion,2016-05-12 10:03:02
;   baseProfile,Plywood
;   printMaterial,PLA
;   printQuality,Fast
;   printExtruders,
;   extruderName,Primary Extruder
;   extruderToolheadNumber,0
;   extruderDiameter,0.4
;   extruderAutoWidth,0
;   extruderWidth,0.48
;   extrusionMultiplier,0.9
;   extruderUseRetract,1
;   extruderRetractionDistance,0.8
;   extruderExtraRestartDistance,0
;   extruderRetractionZLift,0
;   extruderRetractionSpeed,3000
;   extruderUseCoasting,0
;   extruderCoastingDistance,0.2
;   extruderUseWipe,0
;   extruderWipeDistance,5
;   primaryExtruder,0
;   layerHeight,0.22
;   topSolidLayers,4
;   bottomSolidLayers,2
;   perimeterOutlines,2
;   printPerimetersInsideOut,1
;   startPointOption,2
;   startPointOriginX,100
;   startPointOriginY,0
;   startPointOriginZ,150
;   sequentialIslands,0
;   spiralVaseMode,0
;   firstLayerHeightPercentage,100
;   firstLayerWidthPercentage,100
;   firstLayerUnderspeed,0.5
;   useRaft,0
;   raftExtruder,0
;   raftLayers,3
;   raftOffset,5
;   raftSeparationDistance,0.1
;   raftInfill,85
;   disableRaftBaseLayers,0
;   useSkirt,1
;   skirtExtruder,0
;   skirtLayers,1
;   skirtOutlines,3
;   skirtOffset,4
;   usePrimePillar,0
;   primePillarExtruder,999
;   primePillarWidth,12
;   primePillarLocation,7
;   primePillarSpeedMultiplier,1
;   useOozeShield,0
;   oozeShieldExtruder,999
;   oozeShieldOffset,10
;   oozeShieldOutlines,1
;   oozeShieldSidewallShape,0
;   oozeShieldSidewallAngle,30
;   oozeShieldSpeedMultiplier,1
;   infillExtruder,0
;   internalInfillPattern,Wiggle
;   externalInfillPattern,Rectilinear
;   infillPercentage,16
;   outlineOverlapPercentage,15
;   infillExtrusionWidthPercentage,125
;   minInfillLength,1
;   infillLayerInterval,1
;   infillAngles,0
;   overlapInfillAngles,0
;   generateSupport,0
;   supportExtruder,0
;   supportInfillPercentage,20
;   supportExtraInflation,0
;   denseSupportLayers,0
;   denseSupportInfillPercentage,70
;   supportLayerInterval,1
;   supportHorizontalPartOffset,0.3
;   supportUpperSeparationLayers,1
;   supportLowerSeparationLayers,1
;   supportType,0
;   supportGridSpacing,5
;   maxOverhangAngle,35
;   supportAngles,0
;   temperatureName,Extruder 0,Heated Bed
;   temperatureNumber,0,0
;   temperatureSetpointCount,2,1
;   temperatureSetpointLayers,1,2,1
;   temperatureSetpointTemperatures,205,200,60
;   temperatureStabilizeAtStartup,1,1
;   temperatureHeatedBed,0,1
;   temperatureRelayBetweenLayers,0,0
;   temperatureRelayBetweenLoops,0,0
;   fanLayers,1,3,4,5
;   fanSpeeds,0,30,40,50
;   blipFanToFullPower,1
;   adjustSpeedForCooling,1
;   minSpeedLayerTime,15
;   minCoolingSpeedSlowdown,20
;   increaseFanForCooling,1
;   minFanLayerTime,15
;   maxCoolingFanSpeed,100
;   increaseFanForBridging,1
;   bridgingFanSpeed,100
;   use5D,1
;   relativeEdistances,1
;   allowEaxisZeroing,1
;   independentExtruderAxes,0
;   includeM10123,0
;   stickySupport,1
;   applyToolheadOffsets,0
;   gcodeXoffset,0
;   gcodeYoffset,0
;   gcodeZoffset,0
;   overrideMachineDefinition,1
;   machineTypeOverride,0
;   strokeXoverride,170
;   strokeYoverride,160
;   strokeZoverride,145
;   originOffsetXoverride,0
;   originOffsetYoverride,0
;   originOffsetZoverride,0
;   homeXdirOverride,-1
;   homeYdirOverride,-1
;   homeZdirOverride,-1
;   flipXoverride,1
;   flipYoverride,-1
;   flipZoverride,1
;   toolheadOffsets,0,0|0,0|0,0|0,0|0,0|0,0
;   overrideFirmwareConfiguration,0
;   firmwareTypeOverride,RepRap (Marlin/Repetier/Sprinter)
;   GPXconfigOverride,r2
;   baudRateOverride,250000
;   overridePrinterModels,0
;   printerModelsOverride
;   startingGcode,; Jellybox Start Script Begin,M117 Preparing ,,; set x homing offset for default bed leveling,M206 X10.0 Y0.0  ,; optionally adjust Extruder steps per mm for your filament,; M92 E140 ,,; home all axes,G28,; slow Z speed down for greater accuracy,M203 Z5,; auto bed leveling procedure,G29,; pick up z speed again for print,M203 Z7,; reset extruder position,G92 E0,,M117 Print starting,;Jellybox Printer Start Script End
;   layerChangeGcode,
;   retractionGcode,
;   toolChangeGcode,
;   endingGcode,;Jellybox Printer End Script Start,,; extruder heater off,M104 S0,; bed heater off (if you have it),M140 S0,; turn fan off,M107,,; relative positioning,G91,; retract the filament a bit before lifting the nozzle to release some of the pressure,G1 E-1.5 F1200,; move Z up a bit and retract filament even more,G1 Z+1 E-1 X-20 Y-20,;move X/Y to so the head is out of the way,G28 X0,G1 Y100,; steppers off,M84,; absolute positioning,G90,,; Jellybox Printer End Script End
;   createX3G,0
;   celebration,0
;   celebrationSong,Random Song
;   createMB5G,0
;   postProcessing,{REPLACE "M117 Layer" "M117 Layer"} ,{REPLACE ", Z = " " | Z="}
;   defaultSpeed,1200
;   outlineUnderspeed,1
;   solidInfillUnderspeed,1
;   supportUnderspeed,1
;   rapidXYspeed,9000
;   rapidZspeed,300
;   minBridgingArea,50
;   bridgingExtraInflation,0.4
;   bridgingExtrusionMultiplier,1
;   bridgingSpeedMultiplier,1
;   filamentDiameter,1.75
;   filamentPricePerKg,15
;   filamentDensity,1.25
;   useMinPrintHeight,0
;   minPrintHeight,0
;   useMaxPrintHeight,0
;   maxPrintHeight,0
;   useDiaphragm,0
;   diaphragmLayerInterval,20
;   robustSlicing,1
;   mergeAllIntoSolid,0
;   onlyRetractWhenCrossingOutline,1
;   retractBetweenLayers,0
;   useRetractionMinTravel,1
;   retractionMinTravel,1.5
;   retractWhileWiping,0
;   onlyWipeOutlines,1
;   avoidCrossingOutline,1
;   maxMovementDetourFactor,3
;   toolChangeRetractionDistance,12
;   toolChangeExtraRestartDistance,-0.5
;   toolChangeRetractionSpeed,600
;   allowThinWallGapFill,1
;   thinWallAllowedOverlapPercentage,15
;   horizontalSizeCompensation,0
;---------------------------------------
; ; ; Jellybox Start Script Begin ; ; ;
;_______________________________________
G21               ;metric values
G90               ;absolute positioning
M82               ;set extruder to absolute mode
M107              ;start with the fan off
M117 Preparing    ;write Preparing
M190 S45          ;wait for the bed to reach 45C
M109 S180         ;wait for the extruder to reach 180C
G28               ;home all axes
M203 Z4           ;slow Z speed down for greater accuracy when probing
G29               ;auto bed leveling procedure
;M500              ;optionally save the mesh
M203 Z7           ;pick up z speed again for printing
G28 X             ;home x to get as far from the plate as possible
M420 S1           ;(re) enable bed leveling turned off by the G28
G0 Y0 F5000       ;position Y in front
G0 Z15 F3000      ;position Z
M190 S60          ;wait for the bed to reach desired temperature
M109 S210         ;wait for the extruder to reach desired temperature
M300 S440 P100    ;play a tone
G4 P200           ;pause
M300 S440 P100    ;play a tone
G4 P200           ;pause
M300 S440 P800    ;play a tone
M0
M420 S1           ;(re) enable bed leveling to make iron-sure
M117 Print starting   ;write Print starting
;================ ;PRINT:LINE start
G90               ;absolute positioning
G92 E0            ;reset the extruder position
M420 S1           ;(re) enable bed leveling to make iron-sure
G0 Z0             ;get Z down
M83               ;relative extrusion mode
G1 E22 F500       ;extrude __mm of feed stock
G1 E18 F400       ;extrude __mm of feed stock
G1 E10 F400       ;extrude __mm of feed stock
G4 S2             ;pause for ooze
M400              ;make sure all is finished
M420 S1           ;(re) enable bed leveling to make iron-sure
G0 F500 X3 Y0 Z0.6;get to the start of the LINE
G1 E2 F300        ;extrude __mm of feed stock
G1 F1000 X104 E10  ;print a thick LINE extruding __mm along the way
M82               ;absolute extrusion mode
G92 E0            ;reset the extruder position
;---------------------------------------------
; ; ; Jellybox Printer Start Script End ; ; ;
;_____________________________________________
G1 E-0.8000 F3000
G1 Z0.220 F300
M117 Layer 1, Z = 0.22
T0
; tool H0.220 W0.480
; skirt
G1 X73.441 Y71.384 F9000
G1 E0.8000 F900
G1 X73.474 Y71.351 E0.0018 F600
G1 X74.211 Y70.671 E0.0396
G1 X74.235 Y70.650 E0.0013
G1 X74.422 Y70.494 E0.0096
G1 X74.447 Y70.475 E0.0013
G1 X75.230 Y69.892 E0.0386
G1 X75.255 Y69.874 E0.0012
G1 X75.450 Y69.744 E0.0093
G1 X75.475 Y69.728 E0.0012
G1 X76.652 Y69.025 E0.0541
G1 X76.674 Y69.013 E0.0010
G1 X76.848 Y68.919 E0.0078
G1 X76.871 Y68.907 E0.0010
G1 X77.846 Y68.433 E0.0428
G1 X77.864 Y68.425 E0.0008
G1 X77.998 Y68.365 E0.0058
G1 X78.015 Y68.358 E0.0008
G1 X79.048 Y67.935 E0.0441
G1 X79.062 Y67.930 E0.0006
G1 X79.165 Y67.890 E0.0044
G1 X79.179 Y67.885 E0.0006
G1 X79.920 Y67.623 E0.0311
G1 X79.936 Y67.618 E0.0006
G1 X80.054 Y67.579 E0.0049
G1 X80.069 Y67.575 E0.0006
G1 X81.064 Y67.282 E0.0410
G1 X81.088 Y67.275 E0.0010
G1 X81.272 Y67.229 E0.0075
G1 X81.296 Y67.224 E0.0010
G1 X82.327 Y67.011 E0.0416
G1 X82.349 Y67.007 E0.0009
G1 X82.521 Y66.978 E0.0069
G1 X82.544 Y66.975 E0.0009
G1 X83.298 Y66.877 E0.0301
G1 X83.319 Y66.875 E0.0008
G1 X83.477 Y66.860 E0.0063
G1 X83.498 Y66.859 E0.0008
G1 X84.360 Y66.808 E0.0341
G1 X84.382 Y66.807 E0.0009
G1 X84.548 Y66.803 E0.0066
G1 X84.570 Y66.803 E0.0009
G1 X85.172 Y66.811 E0.0238
G1 X85.195 Y66.812 E0.0009
G1 X85.369 Y66.821 E0.0069
G1 X85.392 Y66.822 E0.0009
G1 X86.459 Y66.918 E0.0423
G1 X86.491 Y66.922 E0.0013
G1 X86.735 Y66.957 E0.0097
G1 X86.766 Y66.962 E0.0013
G1 X87.837 Y67.175 E0.0431
G1 X87.863 Y67.181 E0.0011
G1 X88.066 Y67.231 E0.0082
G1 X88.092 Y67.238 E0.0011
G1 X88.876 Y67.470 E0.0323
G1 X88.901 Y67.478 E0.0010
G1 X89.090 Y67.542 E0.0079
G1 X89.114 Y67.551 E0.0010
G1 X90.388 Y68.051 E0.0541
G1 X90.418 Y68.064 E0.0013
G1 X90.642 Y68.166 E0.0097
G1 X90.671 Y68.180 E0.0013
G1 X91.673 Y68.704 E0.0447
G1 X91.697 Y68.717 E0.0011
G1 X91.877 Y68.821 E0.0082
G1 X91.900 Y68.835 E0.0011
G1 X92.854 Y69.450 E0.0449
G1 X92.872 Y69.461 E0.0008
G1 X93.002 Y69.552 E0.0063
G1 X93.019 Y69.564 E0.0008
G1 X93.532 Y69.946 E0.0253
G1 X93.547 Y69.958 E0.0007
G1 X93.661 Y70.049 E0.0058
G1 X93.676 Y70.061 E0.0008
G1 X94.581 Y70.830 E0.0469
G1 X94.602 Y70.848 E0.0011
G1 X94.753 Y70.988 E0.0082
G1 X94.772 Y71.007 E0.0011
G1 X95.642 Y71.892 E0.0490
G1 X95.660 Y71.910 E0.0010
G1 X95.787 Y72.051 E0.0075
G1 X95.804 Y72.070 E0.0010
G1 X96.316 Y72.685 E0.0316
G1 X96.330 Y72.703 E0.0009
G1 X96.433 Y72.836 E0.0067
G1 X96.446 Y72.854 E0.0009
G1 X97.104 Y73.774 E0.0447
G1 X97.119 Y73.795 E0.0010
G1 X97.224 Y73.956 E0.0076
G1 X97.237 Y73.977 E0.0010
G1 X97.612 Y74.607 E0.0289
G1 X97.627 Y74.634 E0.0012
G1 X97.738 Y74.843 E0.0094
G1 X97.751 Y74.871 E0.0012
G1 X98.281 Y76.012 E0.0497
G1 X98.294 Y76.042 E0.0013
G1 X98.387 Y76.275 E0.0099
G1 X98.398 Y76.306 E0.0013
G1 X98.630 Y76.992 E0.0286
G1 X98.637 Y77.017 E0.0010
G1 X98.693 Y77.210 E0.0079
G1 X98.700 Y77.236 E0.0010
G1 X98.865 Y77.915 E0.0276
G1 X98.871 Y77.942 E0.0011
G1 X98.911 Y78.149 E0.0084
G1 X98.916 Y78.177 E0.0011
G1 X99.017 Y78.870 E0.0277
G1 X99.021 Y78.899 E0.0011
G1 X99.043 Y79.120 E0.0088
G1 X99.045 Y79.148 E0.0011
G1 X99.080 Y79.857 E0.0280
G1 X99.080 Y79.887 E0.0012
G1 X99.080 Y80.115 E0.0090
G1 X99.080 Y80.144 E0.0012
G1 X99.045 Y80.850 E0.0279
G1 X99.043 Y80.879 E0.0011
G1 X99.021 Y81.098 E0.0087
G1 X99.018 Y81.127 E0.0011
G1 X98.916 Y81.821 E0.0277
G1 X98.911 Y81.848 E0.0011
G1 X98.870 Y82.058 E0.0084
G1 X98.865 Y82.085 E0.0011
G1 X98.700 Y82.763 E0.0276
G1 X98.693 Y82.789 E0.0010
G1 X98.637 Y82.981 E0.0079
G1 X98.630 Y83.006 E0.0010
G1 X98.398 Y83.692 E0.0286
G1 X98.387 Y83.723 E0.0013
G1 X98.293 Y83.957 E0.0099
G1 X98.280 Y83.987 E0.0013
G1 X97.737 Y85.157 E0.0510
G1 X97.719 Y85.193 E0.0016
G1 X97.575 Y85.457 E0.0119
G1 X97.555 Y85.491 E0.0016
G1 X96.848 Y86.604 E0.0521
G1 X96.829 Y86.632 E0.0013
G1 X96.680 Y86.840 E0.0101
G1 X96.660 Y86.867 E0.0013
G1 X95.849 Y87.876 E0.0512
G1 X95.830 Y87.899 E0.0012
G1 X95.676 Y88.072 E0.0091
G1 X95.655 Y88.094 E0.0012
G1 X94.806 Y88.957 E0.0479
G1 X94.791 Y88.971 E0.0008
G1 X94.678 Y89.079 E0.0062
G1 X94.663 Y89.092 E0.0008
G1 X94.152 Y89.546 E0.0270
G1 X94.137 Y89.558 E0.0007
G1 X94.026 Y89.651 E0.0057
G1 X94.011 Y89.663 E0.0007
G1 X93.093 Y90.379 E0.0460
G1 X93.072 Y90.395 E0.0010
G1 X92.908 Y90.512 E0.0080
G1 X92.886 Y90.527 E0.0010
G1 X91.941 Y91.139 E0.0445
G1 X91.922 Y91.150 E0.0008
G1 X91.780 Y91.235 E0.0065
G1 X91.762 Y91.246 E0.0009
G1 X91.212 Y91.548 E0.0248
G1 X91.194 Y91.558 E0.0008
G1 X91.048 Y91.631 E0.0064
G1 X91.029 Y91.641 E0.0008
G1 X90.060 Y92.088 E0.0422
G1 X90.038 Y92.097 E0.0009
G1 X89.869 Y92.167 E0.0073
G1 X89.846 Y92.176 E0.0009
G1 X89.005 Y92.486 E0.0354
G1 X88.979 Y92.494 E0.0011
G1 X88.781 Y92.557 E0.0082
G1 X88.755 Y92.565 E0.0011
G1 X87.520 Y92.897 E0.0506
G1 X87.484 Y92.905 E0.0014
G1 X87.211 Y92.961 E0.0110
G1 X87.175 Y92.967 E0.0014
G1 X86.057 Y93.126 E0.0446
G1 X86.026 Y93.129 E0.0012
G1 X85.791 Y93.150 E0.0093
G1 X85.760 Y93.152 E0.0012
G1 X84.664 Y93.194 E0.0434
G1 X84.632 Y93.195 E0.0012
G1 X84.394 Y93.191 E0.0094
G1 X84.363 Y93.190 E0.0012
G1 X83.274 Y93.119 E0.0431
G1 X83.246 Y93.116 E0.0011
G1 X83.028 Y93.092 E0.0086
G1 X83.000 Y93.088 E0.0011
G1 X81.934 Y92.915 E0.0427
G1 X81.908 Y92.910 E0.0010
G1 X81.709 Y92.869 E0.0080
G1 X81.683 Y92.863 E0.0010
G1 X80.591 Y92.585 E0.0445
G1 X80.569 Y92.579 E0.0009
G1 X80.408 Y92.532 E0.0067
G1 X80.387 Y92.525 E0.0009
G1 X79.472 Y92.220 E0.0381
G1 X79.455 Y92.214 E0.0007
G1 X79.326 Y92.166 E0.0054
G1 X79.309 Y92.160 E0.0007
G1 X78.041 Y91.650 E0.0540
G1 X78.022 Y91.642 E0.0008
G1 X77.880 Y91.580 E0.0062
G1 X77.861 Y91.571 E0.0008
G1 X76.933 Y91.123 E0.0407
G1 X76.915 Y91.114 E0.0008
G1 X76.776 Y91.041 E0.0062
G1 X76.758 Y91.031 E0.0008
G1 X75.886 Y90.533 E0.0397
G1 X75.860 Y90.518 E0.0012
G1 X75.665 Y90.394 E0.0091
G1 X75.640 Y90.377 E0.0012
G1 X74.516 Y89.577 E0.0545
G1 X74.485 Y89.553 E0.0015
G1 X74.258 Y89.369 E0.0116
G1 X74.230 Y89.344 E0.0015
G1 X73.475 Y88.647 E0.0406
G1 X73.442 Y88.614 E0.0018
G1 X73.200 Y88.354 E0.0140
G1 X73.170 Y88.318 E0.0018
G1 X72.321 Y87.248 E0.0540
G1 X72.293 Y87.210 E0.0019
G1 X72.092 Y86.912 E0.0142
G1 X72.067 Y86.872 E0.0019
G1 X71.596 Y86.037 E0.0379
G1 X71.581 Y86.009 E0.0013
G1 X71.473 Y85.792 E0.0096
G1 X71.460 Y85.763 E0.0012
G1 X71.115 Y84.967 E0.0343
G1 X71.106 Y84.945 E0.0009
G1 X71.042 Y84.782 E0.0069
G1 X71.034 Y84.760 E0.0009
G1 X70.863 Y84.264 E0.0207
G1 X70.855 Y84.238 E0.0011
G1 X70.795 Y84.037 E0.0083
G1 X70.788 Y84.011 E0.0011
G1 X70.497 Y82.827 E0.0482
G1 X70.490 Y82.798 E0.0012
G1 X70.447 Y82.576 E0.0089
G1 X70.442 Y82.547 E0.0012
G1 X70.314 Y81.658 E0.0355
G1 X70.311 Y81.630 E0.0011
G1 X70.290 Y81.415 E0.0085
G1 X70.288 Y81.387 E0.0011
G1 X70.225 Y80.122 E0.0500
G1 X70.225 Y80.087 E0.0014
G1 X70.227 Y79.818 E0.0106
G1 X70.228 Y79.783 E0.0014
G1 X70.339 Y78.154 E0.0645
G1 X70.342 Y78.120 E0.0014
G1 X70.375 Y77.857 E0.0105
G1 X70.381 Y77.823 E0.0014
G1 X70.549 Y76.914 E0.0365
G1 X70.555 Y76.884 E0.0012
G1 X70.609 Y76.657 E0.0092
G1 X70.617 Y76.627 E0.0012
G1 X70.970 Y75.420 E0.0497
G1 X70.982 Y75.384 E0.0015
G1 X71.080 Y75.115 E0.0113
G1 X71.093 Y75.080 E0.0015
G1 X71.460 Y74.234 E0.0364
G1 X71.474 Y74.206 E0.0012
G1 X71.581 Y73.990 E0.0095
G1 X71.595 Y73.962 E0.0012
G1 X72.066 Y73.128 E0.0379
G1 X72.091 Y73.088 E0.0019
G1 X72.292 Y72.789 E0.0142
G1 X72.320 Y72.751 E0.0019
G1 X73.169 Y71.680 E0.0540
G1 X73.199 Y71.645 E0.0018
G1 X73.441 Y71.384 E0.0141
G1 X73.787 Y71.717 F9000
G1 X73.807 Y71.697 E0.0011 F600
G1 X74.532 Y71.027 E0.0390
G1 X74.546 Y71.015 E0.0008
G1 X74.724 Y70.868 E0.0091
G1 X74.739 Y70.856 E0.0008
G1 X75.512 Y70.280 E0.0381
G1 X75.527 Y70.270 E0.0007
G1 X75.711 Y70.146 E0.0088
G1 X75.727 Y70.137 E0.0007
G1 X76.893 Y69.440 E0.0537
G1 X76.907 Y69.432 E0.0006
G1 X77.072 Y69.343 E0.0074
G1 X77.086 Y69.336 E0.0006
G1 X78.053 Y68.867 E0.0425
G1 X78.063 Y68.862 E0.0005
G1 X78.190 Y68.805 E0.0055
G1 X78.201 Y68.800 E0.0005
G1 X79.227 Y68.380 E0.0438
G1 X79.235 Y68.377 E0.0003
