; G-Code generated by Simplify3D(R) Version 3.0.2
; Jul 6, 2016 at 11:29:46 AM
; Settings Summary
;   processName,Process1
;   applyToModels,Temperature tower 190-220
;   profileName,Default (modified)
;   profileVersion,2015-12-20 03:32:45
;   baseProfile,Default (modified)
;   printMaterial,PETG cz
;   printQuality,Fast
;   printExtruders,
;   extruderName,Primary Extruder
;   extruderToolheadNumber,0
;   extruderDiameter,0.4
;   extruderAutoWidth,0
;   extruderWidth,0.48
;   extrusionMultiplier,0.9
;   extruderUseRetract,1
;   extruderRetractionDistance,1.3
;   extruderExtraRestartDistance,0
;   extruderRetractionZLift,0
;   extruderRetractionSpeed,4200
;   extruderUseCoasting,1
;   extruderCoastingDistance,0.2
;   extruderUseWipe,0
;   extruderWipeDistance,3
;   primaryExtruder,0
;   layerHeight,0.3
;   topSolidLayers,3
;   bottomSolidLayers,2
;   perimeterOutlines,1
;   printPerimetersInsideOut,1
;   startPointOption,2
;   startPointOriginX,60
;   startPointOriginY,0
;   startPointOriginZ,200
;   sequentialIslands,0
;   spiralVaseMode,0
;   firstLayerHeightPercentage,100
;   firstLayerWidthPercentage,100
;   firstLayerUnderspeed,0.5
;   useRaft,0
;   raftExtruder,0
;   raftLayers,3
;   raftOffset,3
;   raftSeparationDistance,0.14
;   raftInfill,85
;   disableRaftBaseLayers,0
;   useSkirt,1
;   skirtExtruder,0
;   skirtLayers,1
;   skirtOutlines,8
;   skirtOffset,0
;   usePrimePillar,0
;   primePillarExtruder,999
;   primePillarWidth,12
;   primePillarLocation,7
;   primePillarSpeedMultiplier,1
;   useOozeShield,0
;   oozeShieldExtruder,999
;   oozeShieldOffset,2
;   oozeShieldOutlines,1
;   oozeShieldSidewallShape,1
;   oozeShieldSidewallAngle,30
;   oozeShieldSpeedMultiplier,1
;   infillExtruder,0
;   internalInfillPattern,Rectilinear
;   externalInfillPattern,Rectilinear
;   infillPercentage,35
;   outlineOverlapPercentage,40
;   infillExtrusionWidthPercentage,115
;   minInfillLength,5
;   infillLayerInterval,1
;   infillAngles,45,-45
;   overlapInfillAngles,0
;   generateSupport,0
;   supportExtruder,0
;   supportInfillPercentage,20
;   supportExtraInflation,0
;   denseSupportLayers,1
;   denseSupportInfillPercentage,70
;   supportLayerInterval,1
;   supportHorizontalPartOffset,0.3
;   supportUpperSeparationLayers,1
;   supportLowerSeparationLayers,1
;   supportType,0
;   supportGridSpacing,1.5
;   maxOverhangAngle,50
;   supportAngles,0
;   temperatureName,Primary Extruder,bed
;   temperatureNumber,0,0
;   temperatureSetpointCount,8,1
;   temperatureSetpointLayers,1,33,66,99,132,165,198,231,1
;   temperatureSetpointTemperatures,190,195,200,205,210,215,220,225,70
;   temperatureStabilizeAtStartup,1,1
;   temperatureHeatedBed,0,1
;   temperatureRelayBetweenLayers,0,0
;   temperatureRelayBetweenLoops,0,0
;   fanLayers,1,2
;   fanSpeeds,0,50
;   blipFanToFullPower,0
;   adjustSpeedForCooling,0
;   minSpeedLayerTime,15
;   minCoolingSpeedSlowdown,65
;   increaseFanForCooling,0
;   minFanLayerTime,15
;   maxCoolingFanSpeed,60
;   increaseFanForBridging,1
;   bridgingFanSpeed,100
;   use5D,1
;   relativeEdistances,0
;   allowEaxisZeroing,1
;   independentExtruderAxes,0
;   includeM10123,0
;   stickySupport,1
;   applyToolheadOffsets,0
;   gcodeXoffset,0
;   gcodeYoffset,0
;   gcodeZoffset,0
;   overrideMachineDefinition,1
;   machineTypeOverride,0
;   strokeXoverride,170
;   strokeYoverride,160
;   strokeZoverride,140
;   originOffsetXoverride,0
;   originOffsetYoverride,0
;   originOffsetZoverride,0
;   homeXdirOverride,-1
;   homeYdirOverride,-1
;   homeZdirOverride,-1
;   flipXoverride,1
;   flipYoverride,-1
;   flipZoverride,1
;   toolheadOffsets,0,0|0,0|0,0|0,0|0,0|0,0
;   overrideFirmwareConfiguration,0
;   firmwareTypeOverride,RepRap (Marlin/Repetier/Sprinter)
;   GPXconfigOverride,r2
;   baudRateOverride,115200
;   overridePrinterModels,0
;   printerModelsOverride
;   startingGcode,G21        ;metric values,G90        ;absolute positioning,M82        ;set extruder to absolute mode,M107       ;start with the fan off,G28  ;move X/Y to min endstops,G29;
;   layerChangeGcode,
;   retractionGcode,
;   toolChangeGcode,
;   endingGcode,;End GCode CURA inspired,M104 S0                     ;extruder heater off,M140 S0                     ;heated bed heater off (if you have it),M107                      ; turn fan off,G91                              ;relative positioning,G1 E-1 F300                  ;retract the filament a bit before lifting the nozzle to release some of the pressure,G1 Z+0.5 E-5 X-20 Y-20 F{travel_speed} ;move Z up a bit and retract filament even more,G28 X0 Y0                              ;move X/Y to min endstops so the head is out of the way,M84                         ;steppers off,G90                         ;absolute positioningss
;   createX3G,0
;   celebration,0
;   celebrationSong,Random Song
;   createMB5G,0
;   postProcessing,
;   defaultSpeed,2700
;   outlineUnderspeed,0.6
;   solidInfillUnderspeed,0.6
;   supportUnderspeed,1
;   rapidXYspeed,7200
;   rapidZspeed,420
;   minBridgingArea,50
;   bridgingExtraInflation,0
;   bridgingExtrusionMultiplier,1
;   bridgingSpeedMultiplier,1
;   filamentDiameter,1.75
;   filamentPricePerKg,46
;   filamentDensity,1.25
;   useMinPrintHeight,0
;   minPrintHeight,0
;   useMaxPrintHeight,0
;   maxPrintHeight,2.5
;   useDiaphragm,0
;   diaphragmLayerInterval,20
;   robustSlicing,1
;   mergeAllIntoSolid,0
;   onlyRetractWhenCrossingOutline,1
;   retractBetweenLayers,1
;   useRetractionMinTravel,1
;   retractionMinTravel,1
;   retractWhileWiping,1
;   onlyWipeOutlines,1
;   avoidCrossingOutline,1
;   maxMovementDetourFactor,2
;   toolChangeRetractionDistance,12
;   toolChangeExtraRestartDistance,-0.5
;   toolChangeRetractionSpeed,600
;   allowThinWallGapFill,1
;   thinWallAllowedOverlapPercentage,20
;   horizontalSizeCompensation,0
G90
M82
M106 S0
M140 S70
M190 S70
M104 S190 T0
M109 S190 T0
G21        ;metric values
G90        ;absolute positioning
M82        ;set extruder to absolute mode
M107       ;start with the fan off
G28  ;move X/Y to min endstops
G29;
G92 E0
G1 E-1.3000 F4200
G1 Z0.300 F420
; layer 1, Z = 0.3
T0
; tool H0.300 W0.480
; skirt
G1 X72.900 Y70.009 F7200
G1 E0.0000 F1260
G92 E0
G1 X75.009 Y67.900 E0.1607 F1350
G1 X94.991 Y67.900 E1.2374
G1 X97.100 Y70.009 E1.3981
G1 X97.100 Y89.991 E2.4747
G1 X94.991 Y92.100 E2.6354
G1 X75.009 Y92.100 E3.7121
G1 X72.900 Y89.991 E3.8728
G1 X72.900 Y70.209 E4.9387
G1 X72.900 Y70.009 F1350
G1 X73.380 Y70.208 F7200
G92 E0
G1 X75.208 Y68.380 E0.1393 F1350
G1 X94.792 Y68.380 E1.1945
G1 X96.620 Y70.208 E1.3338
G1 X96.620 Y89.792 E2.3890
G1 X94.792 Y91.620 E2.5283
G1 X75.208 Y91.620 E3.5836
G1 X73.380 Y89.792 E3.7228
G1 X73.380 Y70.408 E4.7673
G1 X73.380 Y70.208 F1350
G1 X73.860 Y70.406 F7200
G92 E0
G1 X75.406 Y68.860 E0.1178 F1350
G1 X94.594 Y68.860 E1.1517
G1 X96.140 Y70.406 E1.2695
G1 X96.140 Y89.594 E2.3033
G1 X94.594 Y91.140 E2.4212
G1 X75.406 Y91.140 E3.4550
G1 X73.860 Y89.594 E3.5728
G1 X73.860 Y70.606 E4.5959
G1 X73.860 Y70.406 F1350
G1 X74.340 Y70.605 F7200
G92 E0
G1 X75.605 Y69.340 E0.0964 F1350
G1 X94.395 Y69.340 E1.1088
G1 X95.660 Y70.605 E1.2052
G1 X95.660 Y89.395 E2.2176
G1 X94.395 Y90.660 E2.3140
G1 X75.605 Y90.660 E3.3264
G1 X74.340 Y89.395 E3.4229
G1 X74.340 Y70.805 E4.4245
G1 X74.340 Y70.605 F1350
G1 X74.820 Y70.804 F7200
G92 E0
G1 X75.804 Y69.820 E0.0750 F1350
G1 X94.196 Y69.820 E1.0660
G1 X95.180 Y70.804 E1.1410
G1 X95.180 Y89.196 E2.1319
G1 X94.196 Y90.180 E2.2069
G1 X75.804 Y90.180 E3.1979
G1 X74.820 Y89.196 E3.2729
G1 X74.820 Y71.004 E4.2531
G1 X74.820 Y70.804 F1350
G1 X75.300 Y71.003 F7200
G92 E0
G1 X76.003 Y70.300 E0.0536 F1350
G1 X93.997 Y70.300 E1.0231
G1 X94.700 Y71.003 E1.0767
G1 X94.700 Y88.997 E2.0462
G1 X93.997 Y89.700 E2.0998
G1 X76.003 Y89.700 E3.0693
G1 X75.300 Y88.997 E3.1229
G1 X75.300 Y71.203 E4.0817
G1 X75.300 Y71.003 F1350
G1 X75.780 Y71.202 F7200
G92 E0
G1 X76.202 Y70.780 E0.0321 F1350
G1 X93.798 Y70.780 E0.9803
G1 X94.220 Y71.202 E1.0124
G1 X94.220 Y88.798 E1.9605
G1 X93.798 Y89.220 E1.9927
G1 X76.202 Y89.220 E2.9408
G1 X75.780 Y88.798 E2.9729
G1 X75.780 Y71.402 E3.9103
G1 X75.780 Y71.202 F1350
G1 X76.260 Y71.401 F7200
G92 E0
G1 X76.401 Y71.260 E0.0107 F1350
G1 X93.599 Y71.260 E0.9374
G1 X93.740 Y71.401 E0.9481
G1 X93.740 Y88.599 E1.8748
G1 X93.599 Y88.740 E1.8855
G1 X76.401 Y88.740 E2.8122
G1 X76.260 Y88.599 E2.8229
G1 X76.260 Y71.601 E3.7389
G1 X76.260 Y71.401 F1350
; outer perimeter
G1 X76.740 Y71.740 F7200
G92 E0
G1 X93.260 Y71.740 E0.8901 F810
G1 X93.260 Y88.260 E1.7802
G1 X76.740 Y88.260 E2.6704
G1 X76.740 Y71.940 E3.5497
G1 X76.740 Y71.740 F810
; outer perimeter
G1 X79.660 Y74.660 F7200
G92 E0
G1 X79.660 Y85.340 E0.5755 F810
G1 X90.340 Y85.340 E1.1509
G1 X90.340 Y74.660 E1.7264
G1 X79.860 Y74.660 E2.2910
G1 X79.660 Y74.660 F810
; solid layer
G1 X80.446 Y74.372 F7200
G92 E0
G1 X82.790 Y72.028 E0.1786 F810
G1 X83.469 Y72.028 E0.2152
G1 X81.125 Y74.372 E0.3938
G1 X81.803 Y74.372 E0.4304
G1 X84.147 Y72.028 E0.6090
G1 X84.826 Y72.028 E0.6456
G1 X82.482 Y74.372 E0.8242
G1 X83.161 Y74.372 E0.8608
G1 X85.505 Y72.028 E1.0394
G1 X86.184 Y72.028 E1.0759
G1 X83.840 Y74.372 E1.2546
G1 X84.519 Y74.372 E1.2911
G1 X86.863 Y72.028 E1.4697
G1 X87.541 Y72.028 E1.5063
G1 X85.197 Y74.372 E1.6849
G1 X85.876 Y74.372 E1.7215
G1 X88.220 Y72.028 E1.9001
G1 X88.899 Y72.028 E1.9367
G1 X86.555 Y74.372 E2.1153
G1 X87.234 Y74.372 E2.1519
G1 X89.578 Y72.028 E2.3305
G1 X90.257 Y72.028 E2.3671
G1 X87.913 Y74.372 E2.5457
G1 X88.592 Y74.372 E2.5823
G1 X90.936 Y72.028 E2.7609
G1 X91.614 Y72.028 E2.7974
G1 X89.270 Y74.372 E2.9761
G1 X89.949 Y74.372 E3.0126
G1 X92.293 Y72.028 E3.1912
G1 X92.972 Y72.028 E3.2278
G1 X92.972 Y72.028 E3.2278
G1 X90.628 Y74.372 E3.4064
G1 X90.628 Y75.051 E3.4430
G1 X92.972 Y72.707 E3.6216
G1 X92.972 Y73.386 E3.6582
G1 X90.628 Y75.730 E3.8368
G1 X90.628 Y76.409 E3.8734
G1 X92.972 Y74.065 E4.0520
G1 X92.972 Y74.743 E4.0886
G1 X90.628 Y77.087 E4.2672
G1 X90.628 Y77.766 E4.3038
G1 X92.972 Y75.422 E4.4824
G1 X92.972 Y76.101 E4.5190
G1 X90.628 Y78.445 E4.6976
G1 X90.628 Y79.124 E4.7341
G1 X92.972 Y76.780 E4.9128
G1 X92.972 Y77.459 E4.9493
G1 X90.628 Y79.803 E5.1280
G1 X90.628 Y80.481 E5.1645
G1 X92.972 Y78.137 E5.3431
G1 X92.972 Y78.816 E5.3797
G1 X90.628 Y81.160 E5.5583
G1 X90.628 Y81.839 E5.5949
G1 X92.972 Y79.495 E5.7735
G1 X92.972 Y80.174 E5.8101
G1 X90.628 Y82.518 E5.9887
G1 X90.628 Y83.197 E6.0253
G1 X92.972 Y80.853 E6.2039
G1 X92.972 Y81.532 E6.2405
G1 X90.628 Y83.876 E6.4191
G1 X90.628 Y84.554 E6.4557
G1 X92.972 Y82.210 E6.6343
G1 X92.972 Y82.889 E6.6709
G1 X90.769 Y85.092 E6.8387
G1 X90.628 Y85.233 F810
G1 X92.972 Y87.641 F7200
G92 E0
G1 X92.641 Y87.972 E0.0252 F810
G1 X91.962 Y87.972 E0.0618
G1 X92.972 Y86.962 E0.1388
G1 X92.972 Y86.283 E0.1753
G1 X91.283 Y87.972 E0.3040
G1 X90.604 Y87.972 E0.3406
G1 X92.972 Y85.604 E0.5210
G1 X92.972 Y84.926 E0.5576
G1 X89.926 Y87.972 E0.7897
G1 X89.247 Y87.972 E0.8263
G1 X92.972 Y84.247 E1.1101
G1 X92.972 Y83.568 E1.1467
G1 X88.568 Y87.972 E1.4823
G1 X87.889 Y87.972 E1.5189
G1 X90.233 Y85.628 E1.6975
G1 X89.554 Y85.628 E1.7340
G1 X87.210 Y87.972 E1.9127
G1 X86.532 Y87.972 E1.9492
G1 X88.876 Y85.628 E2.1279
G1 X88.197 Y85.628 E2.1644
G1 X85.853 Y87.972 E2.3430
G1 X85.174 Y87.972 E2.3796
G1 X87.518 Y85.628 E2.5582
G1 X86.839 Y85.628 E2.5948
G1 X84.495 Y87.972 E2.7734
G1 X83.816 Y87.972 E2.8100
G1 X86.160 Y85.628 E2.9886
G1 X85.481 Y85.628 E3.0252
G1 X83.137 Y87.972 E3.2038
G1 X82.459 Y87.972 E3.2404
G1 X84.803 Y85.628 E3.4190
G1 X84.124 Y85.628 E3.4556
G1 X81.780 Y87.972 E3.6342
G1 X81.101 Y87.972 E3.6708
G1 X83.445 Y85.628 E3.8494
G1 X82.766 Y85.628 E3.8859
G1 X80.422 Y87.972 E4.0646
G1 X79.743 Y87.972 E4.1011
G1 X82.087 Y85.628 E4.2797
G1 X81.409 Y85.628 E4.3163
G1 X79.065 Y87.972 E4.4949
G1 X78.386 Y87.972 E4.5315
G1 X80.730 Y85.628 E4.7101
G1 X80.051 Y85.628 E4.7467
G1 X77.707 Y87.972 E4.9253
G1 X77.028 Y87.972 E4.9619
G1 X79.372 Y85.628 E5.1405
G1 X79.372 Y85.628 E5.1405
G1 X79.372 Y84.949 E5.1771
G1 X77.028 Y87.293 E5.3557
G1 X77.028 Y86.614 E5.3923
G1 X79.372 Y84.270 E5.5709
G1 X79.372 Y83.592 E5.6074
G1 X77.028 Y85.936 E5.7861
G1 X77.028 Y85.257 E5.8226
G1 X79.372 Y82.913 E6.0012
G1 X79.372 Y82.234 E6.0378
G1 X77.028 Y84.578 E6.2164
G1 X77.028 Y83.899 E6.2530
G1 X79.372 Y81.555 E6.4316
G1 X79.372 Y80.876 E6.4682
G1 X77.028 Y83.220 E6.6468
G1 X77.028 Y82.541 E6.6834
G1 X79.372 Y80.197 E6.8620
G1 X79.372 Y79.519 E6.8986
G1 X77.028 Y81.863 E7.0772
G1 X77.028 Y81.184 E7.1138
G1 X79.372 Y78.840 E7.2924
G1 X79.372 Y78.161 E7.3289
G1 X77.028 Y80.505 E7.5076
G1 X77.028 Y79.826 E7.5441
G1 X79.372 Y77.482 E7.7227
G1 X79.372 Y76.803 E7.7593
G1 X77.028 Y79.147 E7.9379
G1 X77.028 Y78.469 E7.9745
G1 X79.372 Y76.125 E8.1531
G1 X79.372 Y75.446 E8.1897
G1 X77.028 Y77.790 E8.3683
G1 X77.028 Y77.111 E8.4049
G1 X79.372 Y74.767 E8.5835
G1 X79.372 Y74.372 E8.6048
G1 X79.767 Y74.372 E8.6261
G1 X82.111 Y72.028 E8.8047
G1 X81.432 Y72.028 E8.8412
G1 X77.028 Y76.432 E9.1768
G1 X77.028 Y75.753 E9.2134
G1 X80.753 Y72.028 E9.4973
G1 X80.074 Y72.028 E9.5338
G1 X77.028 Y75.074 E9.7660
G1 X77.028 Y74.396 E9.8026
G1 X79.396 Y72.028 E9.9830
G1 X78.717 Y72.028 E10.0195
G1 X77.028 Y73.717 E10.1482
G1 X77.028 Y73.038 E10.1848
G1 X78.038 Y72.028 E10.2618
G1 X77.359 Y72.028 E10.2983
G1 X77.169 Y72.218 E10.3128
G1 X77.028 Y72.359 F810
G92 E0
G1 E-1.3000 F4200
; layer 2, Z = 0.6
M106 S127
; outer perimeter
G1 X76.740 Y71.740 F7200
G1 Z0.600 F420
G1 E0.0000 F4200
G92 E0
G1 X93.260 Y71.740 E0.8901 F1620
G1 X93.260 Y88.260 E1.7802
G1 X76.740 Y88.260 E2.6704
G1 X76.740 Y71.940 E3.5497
G1 X76.740 Y71.740 F1620
; outer perimeter
G1 X79.660 Y74.660 F7200
G92 E0
G1 X79.660 Y85.340 E0.5755 F1620
G1 X90.340 Y85.340 E1.1509
G1 X90.340 Y74.660 E1.7264
G1 X79.860 Y74.660 E2.2910
G1 X79.660 Y74.660 F1620
; solid layer
G1 X79.665 Y75.153 F7200
G1 X79.665 Y85.335 F7200
G1 X79.764 Y85.335 F7200
G1 X79.767 Y85.628 F7200
G92 E0
G1 X82.111 Y87.972 E0.1786 F1620
G1 X82.790 Y87.972 E0.2152
G1 X80.446 Y85.628 E0.3938
G1 X81.124 Y85.628 E0.4304
G1 X83.468 Y87.972 E0.6090
G1 X84.147 Y87.972 E0.6456
G1 X81.803 Y85.628 E0.8242
G1 X82.482 Y85.628 E0.8608
G1 X84.826 Y87.972 E1.0394
G1 X85.505 Y87.972 E1.0759
G1 X83.161 Y85.628 E1.2546
G1 X83.840 Y85.628 E1.2911
G1 X86.184 Y87.972 E1.4697
G1 X86.863 Y87.972 E1.5063
G1 X84.519 Y85.628 E1.6849
G1 X85.197 Y85.628 E1.7215
G1 X87.541 Y87.972 E1.9001
G1 X88.220 Y87.972 E1.9367
G1 X85.876 Y85.628 E2.1153
G1 X86.555 Y85.628 E2.1519
G1 X88.899 Y87.972 E2.3305
G1 X89.578 Y87.972 E2.3671
G1 X87.234 Y85.628 E2.5457
G1 X87.913 Y85.628 E2.5823
G1 X90.257 Y87.972 E2.7609
G1 X90.936 Y87.972 E2.7975
G1 X88.592 Y85.628 E2.9761
G1 X89.270 Y85.628 E3.0126
G1 X91.614 Y87.972 E3.1913
G1 X92.293 Y87.972 E3.2278
G1 X89.949 Y85.628 E3.4064
G1 X90.628 Y85.628 E3.4430
G1 X90.628 Y85.628 E3.4430
G1 X92.972 Y87.972 E3.6216
G1 X92.972 Y87.293 E3.6582
G1 X90.628 Y84.949 E3.8368
G1 X90.628 Y84.270 E3.8734
G1 X92.972 Y86.614 E4.0520
G1 X92.972 Y85.936 E4.0886
G1 X90.628 Y83.592 E4.2672
G1 X90.628 Y82.913 E4.3038
G1 X92.972 Y85.257 E4.4824
G1 X92.972 Y84.578 E4.5190
G1 X90.628 Y82.234 E4.6976
G1 X90.628 Y81.555 E4.7342
G1 X92.972 Y83.899 E4.9128
G1 X92.972 Y83.220 E4.9493
G1 X90.628 Y80.876 E5.1280
G1 X90.628 Y80.197 E5.1645
G1 X92.972 Y82.541 E5.3432
G1 X92.972 Y81.863 E5.3797
G1 X90.628 Y79.519 E5.5583
G1 X90.628 Y78.840 E5.5949
G1 X92.972 Y81.184 E5.7735
G1 X92.972 Y80.505 E5.8101
G1 X90.628 Y78.161 E5.9887
G1 X90.628 Y77.482 E6.0253
G1 X92.972 Y79.826 E6.2039
G1 X92.972 Y79.147 E6.2405
G1 X90.628 Y76.803 E6.4191
G1 X90.628 Y76.124 E6.4557
G1 X92.972 Y78.468 E6.6343
G1 X92.972 Y77.790 E6.6709
G1 X90.769 Y75.587 E6.8387
G1 X90.628 Y75.446 F1620
G1 X92.641 Y72.028 F7200
G92 E0
G1 X92.972 Y72.359 E0.0252 F1620
G1 X92.972 Y73.038 E0.0618
G1 X91.962 Y72.028 E0.1388
G1 X91.283 Y72.028 E0.1753
G1 X92.972 Y73.717 E0.3040
G1 X92.972 Y74.396 E0.3406
G1 X90.604 Y72.028 E0.5210
G1 X89.926 Y72.028 E0.5576
G1 X92.972 Y75.074 E0.7897
G1 X92.972 Y75.753 E0.8263
G1 X89.247 Y72.028 E1.1101
G1 X88.568 Y72.028 E1.1467
G1 X92.972 Y76.432 E1.4823
G1 X92.972 Y77.111 E1.5189
