; G-Code generated by Simplify3D(R) Version 3.0.2
; Jul 9, 2016 at 12:23:22 PM
; Settings Summary
;   processName,7 gearse
;   applyToModels,hybrid_gear_bearing_single
;   profileName,PLA jb (modified)
;   profileVersion,2016-03-08 00:10:49
;   baseProfile,Default (modified)
;   printMaterial,PLA Lankeda Green
;   printQuality,Fast
;   printExtruders,
;   extruderName,Primary Extruder
;   extruderToolheadNumber,0
;   extruderDiameter,0.4
;   extruderAutoWidth,0
;   extruderWidth,0.7
;   extrusionMultiplier,1
;   extruderUseRetract,1
;   extruderRetractionDistance,1.3
;   extruderExtraRestartDistance,0
;   extruderRetractionZLift,0.03
;   extruderRetractionSpeed,4200
;   extruderUseCoasting,1
;   extruderCoastingDistance,0.2
;   extruderUseWipe,1
;   extruderWipeDistance,2
;   primaryExtruder,0
;   layerHeight,0.3
;   topSolidLayers,0
;   bottomSolidLayers,0
;   perimeterOutlines,1
;   printPerimetersInsideOut,1
;   startPointOption,2
;   startPointOriginX,0
;   startPointOriginY,0
;   startPointOriginZ,300
;   sequentialIslands,0
;   spiralVaseMode,0
;   firstLayerHeightPercentage,100
;   firstLayerWidthPercentage,100
;   firstLayerUnderspeed,0.4
;   useRaft,0
;   raftExtruder,0
;   raftLayers,1
;   raftOffset,3
;   raftSeparationDistance,0.25
;   raftInfill,100
;   disableRaftBaseLayers,0
;   useSkirt,1
;   skirtExtruder,0
;   skirtLayers,1
;   skirtOutlines,3
;   skirtOffset,3
;   usePrimePillar,0
;   primePillarExtruder,999
;   primePillarWidth,12
;   primePillarLocation,7
;   primePillarSpeedMultiplier,1
;   useOozeShield,0
;   oozeShieldExtruder,999
;   oozeShieldOffset,2
;   oozeShieldOutlines,1
;   oozeShieldSidewallShape,1
;   oozeShieldSidewallAngle,30
;   oozeShieldSpeedMultiplier,1
;   infillExtruder,0
;   internalInfillPattern,Rectilinear
;   externalInfillPattern,Rectilinear
;   infillPercentage,0
;   outlineOverlapPercentage,25
;   infillExtrusionWidthPercentage,125
;   minInfillLength,4
;   infillLayerInterval,1
;   infillAngles,45,-45
;   overlapInfillAngles,0
;   generateSupport,0
;   supportExtruder,0
;   supportInfillPercentage,25
;   supportExtraInflation,0
;   denseSupportLayers,2
;   denseSupportInfillPercentage,60
;   supportLayerInterval,1
;   supportHorizontalPartOffset,0.3
;   supportUpperSeparationLayers,1
;   supportLowerSeparationLayers,1
;   supportType,0
;   supportGridSpacing,3
;   maxOverhangAngle,55
;   supportAngles,0
;   temperatureName,Primary Extruder
;   temperatureNumber,0
;   temperatureSetpointCount,2
;   temperatureSetpointLayers,1,1
;   temperatureSetpointTemperatures,208,208
;   temperatureStabilizeAtStartup,1
;   temperatureHeatedBed,0
;   temperatureRelayBetweenLayers,0
;   temperatureRelayBetweenLoops,0
;   fanLayers,1,2
;   fanSpeeds,0,55
;   blipFanToFullPower,1
;   adjustSpeedForCooling,1
;   minSpeedLayerTime,15
;   minCoolingSpeedSlowdown,50
;   increaseFanForCooling,0
;   minFanLayerTime,45
;   maxCoolingFanSpeed,100
;   increaseFanForBridging,1
;   bridgingFanSpeed,100
;   use5D,1
;   relativeEdistances,0
;   allowEaxisZeroing,1
;   independentExtruderAxes,0
;   includeM10123,0
;   stickySupport,1
;   applyToolheadOffsets,0
;   gcodeXoffset,0
;   gcodeYoffset,0
;   gcodeZoffset,0
;   overrideMachineDefinition,1
;   machineTypeOverride,0
;   strokeXoverride,170
;   strokeYoverride,160
;   strokeZoverride,120
;   originOffsetXoverride,0
;   originOffsetYoverride,0
;   originOffsetZoverride,0
;   homeXdirOverride,-1
;   homeYdirOverride,-1
;   homeZdirOverride,-1
;   flipXoverride,1
;   flipYoverride,-1
;   flipZoverride,1
;   toolheadOffsets,0,0|0,0|0,0|0,0|0,0|0,0
;   overrideFirmwareConfiguration,0
;   firmwareTypeOverride,RepRap (Marlin/Repetier/Sprinter)
;   GPXconfigOverride,r2
;   baudRateOverride,115200
;   overridePrinterModels,0
;   printerModelsOverride
;   startingGcode,; Jellybox Start Script Begin,M117 Preparing ,,; set x homing offset for default bed leveling,M206 X11.0 Y0.0  ,; optionally adjust steps per mm for your filament,; M92 E140 ,,; home all axes,G28,; slow Z speed down for greater accuracy,M203 Z5,; auto bed leveling procedure,G29,; pick up z speed again for print,M203 Z7,; reset extruder position,G92 E0,,M117 Print starting,;Jellybox Printer Start Script End,
;   layerChangeGcode,
;   retractionGcode,
;   toolChangeGcode,
;   endingGcode,;Jellybox Printer End Script Start,,; extruder heater off,M104 S0,; bed heater off (if you have it),M140 S0,; turn fan off,M107,,; relative positioning,G91,; retract the filament a bit before lifting the nozzle to release some of the pressure,G1 E-1.5 F1200,; move Z up a bit and retract filament even more,G1 Z+1 E-1 X-20 Y-20,;move X/Y to so the head is out of the way,G28 X0,G1 Y100,; steppers off,M84,; absolute positioning,G90,,; Jellybox Printer End Script End,
;   createX3G,0
;   celebration,0
;   celebrationSong,Random Song
;   createMB5G,0
;   postProcessing,{REPLACE "M117 Layer" "M117 Layer"} ,{REPLACE " Z=" " Z="}
;   defaultSpeed,2400
;   outlineUnderspeed,0.7
;   solidInfillUnderspeed,0.7
;   supportUnderspeed,0.9
;   rapidXYspeed,7200
;   rapidZspeed,360
;   minBridgingArea,50
;   bridgingExtraInflation,0
;   bridgingExtrusionMultiplier,1
;   bridgingSpeedMultiplier,1
;   filamentDiameter,1.75
;   filamentPricePerKg,46
;   filamentDensity,1.25
;   useMinPrintHeight,0
;   minPrintHeight,93
;   useMaxPrintHeight,0
;   maxPrintHeight,20
;   useDiaphragm,0
;   diaphragmLayerInterval,20
;   robustSlicing,1
;   mergeAllIntoSolid,0
;   onlyRetractWhenCrossingOutline,0
;   retractBetweenLayers,1
;   useRetractionMinTravel,1
;   retractionMinTravel,1
;   retractWhileWiping,1
;   onlyWipeOutlines,1
;   avoidCrossingOutline,1
;   maxMovementDetourFactor,3
;   toolChangeRetractionDistance,12
;   toolChangeExtraRestartDistance,-0.5
;   toolChangeRetractionSpeed,600
;   allowThinWallGapFill,1
;   thinWallAllowedOverlapPercentage,15
;   horizontalSizeCompensation,0
;---------------------------------------
; ; ; Jellybox Start Script Begin ; ; ;
;_______________________________________
G21               ;metric values
G90               ;absolute positioning
M82               ;set extruder to absolute mode
M107              ;start with the fan off
M117 Preparing    ;write Preparing
M190 S45          ;wait for the bed to reach 45C
M109 S180         ;wait for the extruder to reach 180C
G28               ;home all axes
M203 Z4           ;slow Z speed down for greater accuracy when probing
G29               ;auto bed leveling procedure
;M500              ;optionally save the mesh
M203 Z7           ;pick up z speed again for printing
G28 X             ;home x to get as far from the plate as possible
M420 S1           ;(re) enable bed leveling turned off by the G28
G0 Y0 F5000       ;position Y in front
G0 Z15 F3000      ;position Z
M190 S60          ;wait for the bed to reach desired temperature
M109 S210         ;wait for the extruder to reach desired temperature
M300 S440 P100    ;play a tone
G4 P200           ;pause
M300 S440 P100    ;play a tone
G4 P200           ;pause
M300 S440 P800    ;play a tone
M0
M420 S1           ;(re) enable bed leveling to make iron-sure
M117 Print starting   ;write Print starting
;================ ;PRINT:LINE start
G90               ;absolute positioning
G92 E0            ;reset the extruder position
M420 S1           ;(re) enable bed leveling to make iron-sure
G0 Z0             ;get Z down
M83               ;relative extrusion mode
G1 E22 F500       ;extrude __mm of feed stock
G1 E18 F400       ;extrude __mm of feed stock
G1 E10 F400       ;extrude __mm of feed stock
G4 S2             ;pause for ooze
M400              ;make sure all is finished
M420 S1           ;(re) enable bed leveling to make iron-sure
G0 F500 X3 Y0 Z0.6;get to the start of the LINE
G1 E2 F300        ;extrude __mm of feed stock
G1 F1000 X104 E10  ;print a thick LINE extruding __mm along the way
M82               ;absolute extrusion mode
G92 E0            ;reset the extruder position
;---------------------------------------------
; ; ; Jellybox Printer Start Script End ; ; ;
;_____________________________________________
G92 E0
G1 E-1.3000 F4200
G1 Z0.330 F360
M117 Layer 1, Z=0.3
T0
; tool H0.300 W0.700
; skirt
G1 X65.921 Y62.278 F7200
G1 Z0.300 F360
G1 E0.0000 F1260
G92 E0
G1 X67.278 Y60.921 E0.1676 F1200
G1 X67.304 Y60.896 E0.1708
G1 X67.422 Y60.787 E0.1848
G1 X67.449 Y60.763 E0.1879
G1 X68.914 Y59.522 E0.3555
G1 X68.942 Y59.500 E0.3587
G1 X69.069 Y59.401 E0.3727
G1 X69.098 Y59.379 E0.3758
G1 X70.660 Y58.264 E0.5435
G1 X70.690 Y58.243 E0.5466
G1 X70.824 Y58.156 E0.5606
G1 X70.855 Y58.137 E0.5638
G1 X72.504 Y57.154 E0.7314
G1 X72.536 Y57.136 E0.7345
G1 X72.677 Y57.060 E0.7485
G1 X72.709 Y57.043 E0.7517
G1 X74.433 Y56.200 E0.9193
G1 X74.466 Y56.185 E0.9225
G1 X74.613 Y56.121 E0.9364
G1 X74.646 Y56.107 E0.9396
G1 X76.435 Y55.409 E1.1072
G1 X76.469 Y55.396 E1.1104
G1 X76.620 Y55.344 E1.1244
G1 X76.655 Y55.333 E1.1275
G1 X78.495 Y54.785 E1.2951
G1 X78.530 Y54.776 E1.2983
G1 X78.685 Y54.736 E1.3123
G1 X78.720 Y54.728 E1.3155
G1 X80.599 Y54.334 E1.4831
G1 X80.635 Y54.328 E1.4862
G1 X80.793 Y54.301 E1.5002
G1 X80.829 Y54.296 E1.5034
G1 X82.734 Y54.059 E1.6710
G1 X82.770 Y54.055 E1.6741
G1 X82.929 Y54.042 E1.6881
G1 X82.965 Y54.039 E1.6913
G1 X84.884 Y53.960 E1.8589
G1 X84.920 Y53.959 E1.8621
G1 X85.080 Y53.959 E1.8761
G1 X85.116 Y53.960 E1.8792
G1 X87.035 Y54.039 E2.0468
G1 X87.071 Y54.042 E2.0500
G1 X87.230 Y54.055 E2.0640
G1 X87.266 Y54.059 E2.0672
G1 X89.171 Y54.296 E2.2348
G1 X89.207 Y54.301 E2.2379
G1 X89.365 Y54.328 E2.2519
G1 X89.401 Y54.334 E2.2551
G1 X91.280 Y54.728 E2.4227
G1 X91.315 Y54.736 E2.4258
G1 X91.470 Y54.776 E2.4398
G1 X91.505 Y54.785 E2.4430
G1 X93.345 Y55.333 E2.6106
G1 X93.380 Y55.344 E2.6138
G1 X93.531 Y55.396 E2.6278
G1 X93.565 Y55.409 E2.6309
G1 X95.350 Y56.105 E2.7982
G1 X95.383 Y56.119 E2.8013
G1 X95.530 Y56.183 E2.8153
G1 X95.562 Y56.198 E2.8184
G1 X97.291 Y57.043 E2.9864
G1 X97.323 Y57.060 E2.9896
G1 X97.464 Y57.136 E3.0036
G1 X97.496 Y57.154 E3.0067
G1 X99.145 Y58.137 E3.1744
G1 X99.176 Y58.156 E3.1775
G1 X99.310 Y58.243 E3.1915
G1 X99.340 Y58.264 E3.1947
G1 X100.902 Y59.379 E3.3623
G1 X100.931 Y59.401 E3.3655
G1 X101.058 Y59.499 E3.3794
G1 X101.086 Y59.522 E3.3826
G1 X102.551 Y60.763 E3.5502
G1 X102.578 Y60.787 E3.5534
G1 X102.696 Y60.896 E3.5674
G1 X102.722 Y60.921 E3.5705
G1 X104.079 Y62.278 E3.7381
G1 X104.104 Y62.304 E3.7413
G1 X104.213 Y62.422 E3.7553
G1 X104.237 Y62.449 E3.7584
G1 X105.478 Y63.914 E3.9261
G1 X105.500 Y63.942 E3.9292
G1 X105.599 Y64.069 E3.9432
G1 X105.621 Y64.098 E3.9464
G1 X106.736 Y65.660 E4.1140
G1 X106.757 Y65.690 E4.1171
G1 X106.844 Y65.824 E4.1311
G1 X106.863 Y65.855 E4.1343
G1 X107.846 Y67.504 E4.3019
G1 X107.864 Y67.536 E4.3051
G1 X107.940 Y67.677 E4.3191
G1 X107.957 Y67.709 E4.3222
G1 X108.800 Y69.433 E4.4898
G1 X108.815 Y69.466 E4.4930
G1 X108.880 Y69.613 E4.5070
G1 X108.893 Y69.646 E4.5101
G1 X109.591 Y71.435 E4.6777
G1 X109.604 Y71.469 E4.6809
G1 X109.656 Y71.620 E4.6949
G1 X109.667 Y71.655 E4.6980
G1 X110.215 Y73.495 E4.8657
G1 X110.224 Y73.530 E4.8688
G1 X110.264 Y73.685 E4.8828
G1 X110.272 Y73.720 E4.8860
G1 X110.666 Y75.599 E5.0536
G1 X110.672 Y75.635 E5.0568
G1 X110.699 Y75.793 E5.0707
G1 X110.704 Y75.829 E5.0739
G1 X110.941 Y77.734 E5.2415
G1 X110.945 Y77.770 E5.2447
G1 X110.958 Y77.929 E5.2587
G1 X110.961 Y77.965 E5.2618
G1 X111.040 Y79.884 E5.4294
G1 X111.041 Y79.920 E5.4326
G1 X111.041 Y80.080 E5.4466
G1 X111.040 Y80.116 E5.4497
G1 X110.961 Y82.035 E5.6174
G1 X110.958 Y82.071 E5.6205
G1 X110.945 Y82.230 E5.6345
G1 X110.941 Y82.266 E5.6377
G1 X110.704 Y84.171 E5.8053
G1 X110.699 Y84.207 E5.8085
G1 X110.672 Y84.365 E5.8224
G1 X110.666 Y84.401 E5.8256
G1 X110.272 Y86.280 E5.9932
G1 X110.264 Y86.315 E5.9964
G1 X110.224 Y86.470 E6.0104
G1 X110.215 Y86.505 E6.0135
G1 X109.667 Y88.345 E6.1811
G1 X109.656 Y88.380 E6.1843
G1 X109.604 Y88.531 E6.1983
G1 X109.591 Y88.565 E6.2014
G1 X108.893 Y90.354 E6.3691
G1 X108.879 Y90.387 E6.3722
G1 X108.815 Y90.534 E6.3862
G1 X108.800 Y90.567 E6.3894
G1 X107.957 Y92.291 E6.5570
G1 X107.940 Y92.324 E6.5601
G1 X107.864 Y92.465 E6.5741
G1 X107.846 Y92.496 E6.5773
G1 X106.863 Y94.145 E6.7449
G1 X106.844 Y94.176 E6.7481
G1 X106.757 Y94.310 E6.7620
G1 X106.736 Y94.340 E6.7652
G1 X105.621 Y95.902 E6.9328
G1 X105.599 Y95.931 E6.9360
G1 X105.500 Y96.058 E6.9500
G1 X105.478 Y96.086 E6.9531
G1 X104.237 Y97.551 E7.1207
G1 X104.213 Y97.578 E7.1239
G1 X104.104 Y97.696 E7.1379
G1 X104.079 Y97.722 E7.1410
G1 X102.722 Y99.079 E7.3087
G1 X102.696 Y99.104 E7.3118
G1 X102.578 Y99.213 E7.3258
G1 X102.551 Y99.237 E7.3290
G1 X101.086 Y100.478 E7.4966
G1 X101.058 Y100.500 E7.4997
G1 X100.931 Y100.599 E7.5137
G1 X100.902 Y100.621 E7.5169
G1 X99.340 Y101.736 E7.6845
G1 X99.310 Y101.757 E7.6877
G1 X99.176 Y101.844 E7.7016
G1 X99.145 Y101.863 E7.7048
G1 X97.496 Y102.846 E7.8724
G1 X97.465 Y102.864 E7.8756
G1 X97.324 Y102.940 E7.8896
G1 X97.291 Y102.957 E7.8927
G1 X95.567 Y103.800 E8.0604
G1 X95.534 Y103.815 E8.0635
G1 X95.387 Y103.879 E8.0775
G1 X95.354 Y103.893 E8.0806
G1 X93.565 Y104.591 E8.2483
G1 X93.531 Y104.604 E8.2514
G1 X93.380 Y104.656 E8.2654
G1 X93.345 Y104.667 E8.2686
G1 X91.505 Y105.215 E8.4362
G1 X91.470 Y105.224 E8.4394
G1 X91.315 Y105.264 E8.4534
G1 X91.280 Y105.272 E8.4565
G1 X89.401 Y105.666 E8.6241
G1 X89.365 Y105.672 E8.6273
G1 X89.207 Y105.699 E8.6413
G1 X89.171 Y105.704 E8.6444
G1 X87.266 Y105.941 E8.8120
G1 X87.230 Y105.945 E8.8152
G1 X87.071 Y105.958 E8.8292
G1 X87.035 Y105.961 E8.8323
G1 X85.116 Y106.040 E9.0000
G1 X85.080 Y106.041 E9.0031
G1 X84.920 Y106.041 E9.0171
G1 X84.884 Y106.040 E9.0203
G1 X82.965 Y105.961 E9.1879
G1 X82.929 Y105.958 E9.1911
G1 X82.770 Y105.945 E9.2050
G1 X82.734 Y105.941 E9.2082
G1 X80.829 Y105.704 E9.3758
G1 X80.793 Y105.699 E9.3790
G1 X80.635 Y105.672 E9.3929
G1 X80.599 Y105.666 E9.3961
G1 X78.720 Y105.272 E9.5637
G1 X78.685 Y105.264 E9.5669
G1 X78.530 Y105.224 E9.5809
G1 X78.495 Y105.215 E9.5840
G1 X76.655 Y104.667 E9.7517
G1 X76.620 Y104.656 E9.7548
G1 X76.469 Y104.604 E9.7688
G1 X76.435 Y104.591 E9.7720
G1 X74.650 Y103.895 E9.9392
G1 X74.617 Y103.881 E9.9424
G1 X74.470 Y103.817 E9.9563
G1 X74.438 Y103.802 E9.9595
G1 X72.709 Y102.957 E10.1274
G1 X72.677 Y102.940 E10.1306
G1 X72.536 Y102.864 E10.1446
G1 X72.504 Y102.846 E10.1478
G1 X70.855 Y101.863 E10.3154
G1 X70.824 Y101.844 E10.3186
G1 X70.690 Y101.757 E10.3326
G1 X70.660 Y101.736 E10.3357
G1 X69.098 Y100.621 E10.5033
G1 X69.069 Y100.599 E10.5065
G1 X68.942 Y100.500 E10.5205
G1 X68.914 Y100.478 E10.5237
G1 X67.449 Y99.237 E10.6913
G1 X67.422 Y99.213 E10.6944
G1 X67.304 Y99.104 E10.7084
G1 X67.278 Y99.079 E10.7116
G1 X65.921 Y97.722 E10.8792
G1 X65.896 Y97.696 E10.8823
G1 X65.787 Y97.578 E10.8963
G1 X65.763 Y97.551 E10.8995
G1 X64.522 Y96.086 E11.0671
G1 X64.500 Y96.058 E11.0703
G1 X64.401 Y95.931 E11.0843
G1 X64.379 Y95.902 E11.0874
G1 X63.264 Y94.340 E11.2550
G1 X63.243 Y94.310 E11.2582
G1 X63.156 Y94.176 E11.2722
G1 X63.137 Y94.145 E11.2753
G1 X62.154 Y92.496 E11.4429
G1 X62.136 Y92.464 E11.4461
G1 X62.060 Y92.323 E11.4601
G1 X62.043 Y92.291 E11.4633
G1 X61.200 Y90.567 E11.6309
G1 X61.185 Y90.534 E11.6340
G1 X61.121 Y90.387 E11.6480
G1 X61.107 Y90.354 E11.6512
G1 X60.409 Y88.565 E11.8188
G1 X60.396 Y88.531 E11.8220
G1 X60.344 Y88.380 E11.8359
G1 X60.333 Y88.345 E11.8391
G1 X59.785 Y86.505 E12.0067
G1 X59.776 Y86.470 E12.0099
G1 X59.736 Y86.315 E12.0239
G1 X59.728 Y86.280 E12.0270
G1 X59.334 Y84.401 E12.1947
G1 X59.328 Y84.365 E12.1978
G1 X59.301 Y84.207 E12.2118
G1 X59.296 Y84.171 E12.2149
G1 X59.059 Y82.266 E12.3826
G1 X59.055 Y82.230 E12.3857
G1 X59.042 Y82.071 E12.3997
G1 X59.039 Y82.035 E12.4029
G1 X58.960 Y80.116 E12.5705
G1 X58.959 Y80.080 E12.5736
G1 X58.959 Y79.920 E12.5876
G1 X58.960 Y79.884 E12.5908
G1 X59.039 Y77.965 E12.7584
G1 X59.042 Y77.929 E12.7616
G1 X59.055 Y77.770 E12.7756
G1 X59.059 Y77.734 E12.7787
G1 X59.296 Y75.829 E12.9463
G1 X59.301 Y75.793 E12.9495
G1 X59.328 Y75.635 E12.9635
G1 X59.334 Y75.599 E12.9666
G1 X59.728 Y73.720 E13.1342
G1 X59.736 Y73.685 E13.1374
G1 X59.776 Y73.530 E13.1514
